;START_OF_HEADER
;HEADER_VERSION:0.1
;FLAVOR:Griffin
;GENERATOR.NAME:Cura_SteamEngine
;GENERATOR.VERSION:2.7.0
;GENERATOR.BUILD_DATE:2017-08-30
;TARGET_MACHINE.NAME:Ultimaker 3
;EXTRUDER_TRAIN.0.INITIAL_TEMPERATURE:205
;EXTRUDER_TRAIN.0.MATERIAL.VOLUME_USED:27368
;EXTRUDER_TRAIN.0.MATERIAL.GUID:506c9f0d-e3aa-4bd4-b2d2-23e2425b1aa9
;EXTRUDER_TRAIN.0.NOZZLE.DIAMETER:0.4
;EXTRUDER_TRAIN.0.NOZZLE.NAME:AA 0.4
;BUILD_PLATE.INITIAL_TEMPERATURE:60
;PRINT.TIME:8136
;PRINT.SIZE.MIN.X:7.684
;PRINT.SIZE.MIN.Y:5.407
;PRINT.SIZE.MIN.Z:0.27
;PRINT.SIZE.MAX.X:199.862
;PRINT.SIZE.MAX.Y:203.895
;PRINT.SIZE.MAX.Z:2
;END_OF_HEADER
;Generated with Cura_SteamEngine 2.7.0

T0
G92 E0

M109 S205
G0 F15000 X9 Y6 Z2
G280
G1 F1500 E-6.5
;LAYER_COUNT:64
;LAYER:0
M107
M204 S625
M205 X6 Y6
G0 F3750 X191.332 Y177.905 Z0.27
M204 S500
M205 X5 Y5
;TYPE:WALL-INNER
G1 F1500 E0
G1 F1200 X183.753 Y187.786 E0.15812
G1 X173.872 Y195.365 E0.31623
G1 X162.371 Y200.129 E0.47429
G1 X150.039 Y201.755 E0.63223
G1 X137.707 Y200.129 E0.79017
G1 X126.206 Y195.365 E0.94823
G1 X114.706 Y186.545 E1.13225
G1 X99.28 Y197.972 E1.376
G1 X42.339 Y197.972 E2.09898
G1 X42.339 Y116.372 E3.13507
G1 X99.678 Y116.372 E3.86311
G1 X115.128 Y121.269 E4.0689
G1 X126.206 Y112.778 E4.24612
G1 X137.707 Y108.014 E4.40418
G1 X150.039 Y106.389 E4.56212
G1 X162.371 Y108.014 E4.72005
G1 X173.872 Y112.778 E4.87812
G1 X183.753 Y120.357 E5.03623
G1 X191.332 Y130.239 E5.19436
G1 X196.096 Y141.74 E5.35242
G1 X197.722 Y154.072 E5.51036
G1 X196.096 Y166.404 E5.66829
G1 X191.332 Y177.905 E5.82635
M204 S625
M205 X6 Y6
G0 F3750 X191.594 Y178.057
M204 S500
M205 X5 Y5
G1 F1200 X183.967 Y188 E5.98547
G1 X174.024 Y195.627 E6.14458
G1 X162.451 Y200.421 E6.30363
G1 X150.039 Y202.057 E6.46259
G1 X137.627 Y200.421 E6.62155
G1 X126.054 Y195.627 E6.7806
G1 X114.703 Y186.921 E6.96224
G1 X99.379 Y198.272 E7.20437
G1 X42.039 Y198.272 E7.93243
G1 X42.039 Y116.072 E8.97613
G1 X99.725 Y116.072 E9.70858
G1 X115.07 Y120.936 E9.91297
G1 X126.054 Y112.516 E10.0887
G1 X137.627 Y107.722 E10.24775
G1 X150.039 Y106.087 E10.40671
G1 X162.451 Y107.722 E10.56567
G1 X174.024 Y112.516 E10.72472
G1 X183.967 Y120.143 E10.88383
G1 X191.594 Y130.087 E11.04295
G1 X196.388 Y141.66 E11.202
G1 X198.024 Y154.072 E11.36096
G1 X196.388 Y166.484 E11.51992
G1 X191.594 Y178.057 E11.67898
M204 S625
M205 X6 Y6
G0 F3750 X191.856 Y178.209
M204 S500
M205 X5 Y5
G1 F1200 X184.181 Y188.214 E11.83908
G1 X174.176 Y195.889 E11.99919
G1 X162.531 Y200.713 E12.15923
G1 X150.039 Y202.359 E12.31922
G1 X137.547 Y200.713 E12.4792
G1 X125.902 Y195.889 E12.63924
G1 X114.7 Y187.297 E12.8185
G1 X99.478 Y198.572 E13.05902
G1 X41.739 Y198.572 E13.79214
G1 X41.739 Y115.772 E14.84346
G1 X99.772 Y115.772 E15.58031
G1 X115.012 Y120.603 E15.7833
G1 X125.902 Y112.254 E15.95754
G1 X137.547 Y107.43 E16.11758
G1 X150.039 Y105.785 E16.27756
G1 X162.531 Y107.43 E16.43754
G1 X174.176 Y112.254 E16.59759
G1 X184.181 Y119.929 E16.75769
G1 X191.856 Y129.935 E16.91781
G1 X196.68 Y141.58 E17.07785
G1 X198.326 Y154.072 E17.23784
G1 X196.68 Y166.564 E17.39782
G1 X191.856 Y178.209 E17.55786
M204 S625
M205 X6 Y6
G0 F3750 X192.118 Y178.361
M204 S500
M205 X5 Y5
G1 F1200 X184.395 Y188.428 E17.71897
G1 X174.328 Y196.151 E17.88007
G1 X162.611 Y201.005 E18.0411
G1 X150.039 Y202.661 E18.20211
G1 X137.467 Y201.005 E18.36312
G1 X125.75 Y196.151 E18.52415
G1 X114.697 Y187.673 E18.70102
G1 X99.577 Y198.872 E18.93993
G1 X41.439 Y198.872 E19.67811
G1 X41.439 Y115.472 E20.73705
G1 X99.819 Y115.472 E21.47831
G1 X114.954 Y120.27 E21.67991
G1 X125.75 Y111.992 E21.85264
G1 X137.467 Y107.138 E22.01368
G1 X150.039 Y105.483 E22.17468
G1 X162.611 Y107.138 E22.33569
G1 X174.328 Y111.992 E22.49672
G1 X184.395 Y119.715 E22.65782
G1 X192.118 Y129.783 E22.81894
G1 X196.972 Y141.5 E22.97997
G1 X198.628 Y154.072 E23.14098
G1 X196.972 Y166.644 E23.30198
G1 X192.118 Y178.361 E23.46302
M204 S625
M205 X6 Y6
G0 F3750 X192.38 Y178.513
M204 S500
M205 X5 Y5
G1 F1200 X184.609 Y188.642 E23.62512
G1 X174.48 Y196.413 E23.78721
G1 X162.691 Y201.297 E23.94924
G1 X150.039 Y202.963 E24.11127
G1 X137.387 Y201.297 E24.2733
G1 X125.598 Y196.413 E24.43532
G1 X114.694 Y188.049 E24.60981
G1 X99.676 Y199.172 E24.8471
G1 X41.139 Y199.172 E25.59035
G1 X41.139 Y115.172 E26.65691
G1 X99.866 Y115.172 E27.40258
G1 X114.896 Y119.937 E27.60278
G1 X125.598 Y111.73 E27.77402
G1 X137.387 Y106.846 E27.93604
G1 X150.039 Y105.181 E28.09807
G1 X162.691 Y106.846 E28.2601
G1 X174.48 Y111.73 E28.42212
G1 X184.609 Y119.501 E28.58422
G1 X192.38 Y129.631 E28.74633
G1 X197.264 Y141.42 E28.90835
G1 X198.93 Y154.072 E29.07038
G1 X197.264 Y166.724 E29.23241
G1 X192.38 Y178.513 E29.39444
M204 S625
M205 X6 Y6
G0 F3750 X192.642 Y178.665
M204 S500
M205 X5 Y5
G1 F1200 X184.823 Y188.856 E29.55753
G1 X174.632 Y196.675 E29.72063
G1 X162.771 Y201.589 E29.88364
G1 X150.039 Y203.265 E30.04669
G1 X137.307 Y201.589 E30.20975
G1 X125.446 Y196.675 E30.37276
G1 X114.691 Y188.425 E30.54487
G1 X99.775 Y199.472 E30.78054
G1 X40.839 Y199.472 E31.52886
G1 X40.839 Y114.872 E32.60304
G1 X99.913 Y114.872 E33.35311
G1 X114.838 Y119.604 E33.55191
G1 X125.446 Y111.468 E33.72166
G1 X137.307 Y106.554 E33.88467
G1 X150.039 Y104.879 E34.04772
G1 X162.771 Y106.554 E34.21078
G1 X174.632 Y111.468 E34.37379
G1 X184.823 Y119.287 E34.53688
G1 X192.642 Y129.479 E34.69999
G1 X197.556 Y141.34 E34.863
G1 X199.232 Y154.072 E35.02606
G1 X197.556 Y166.804 E35.18911
G1 X192.642 Y178.665 E35.35212
M204 S625
M205 X6 Y6
G0 F3750 X192.904 Y178.817
M204 S500
M205 X5 Y5
G1 F1200 X185.037 Y189.07 E35.51621
G1 X174.784 Y196.937 E35.6803
G1 X162.851 Y201.881 E35.84431
G1 X150.039 Y203.567 E36.00839
G1 X137.227 Y201.881 E36.17246
G1 X125.294 Y196.937 E36.33647
G1 X114.688 Y188.801 E36.50619
G1 X99.874 Y199.772 E36.74025
G1 X40.539 Y199.772 E37.49364
G1 X40.539 Y114.572 E38.57543
G1 X99.96 Y114.572 E39.32991
G1 X114.78 Y119.271 E39.52731
G1 X125.294 Y111.206 E39.69556
G1 X137.227 Y106.262 E39.85957
G1 X150.039 Y104.577 E40.02364
G1 X162.851 Y106.262 E40.18772
G1 X174.784 Y111.206 E40.35172
G1 X185.037 Y119.073 E40.51581
G1 X192.904 Y129.327 E40.67991
G1 X197.848 Y141.26 E40.84392
G1 X199.534 Y154.072 E41.00799
G1 X197.848 Y166.884 E41.17207
G1 X192.904 Y178.817 E41.33608
M204 S625
M205 X6 Y6
G0 F3750 X193.187 Y178.983
M204 S500
M205 X5 Y5
;TYPE:WALL-OUTER
G1 F1200 X185.269 Y189.302 E41.52875
G1 X174.95 Y197.22 E41.72142
G1 X162.935 Y202.197 E41.91407
G1 X150.039 Y203.895 E42.10675
G1 X137.143 Y202.197 E42.29943
G1 X125.128 Y197.22 E42.49208
G1 X114.685 Y189.208 E42.68706
G1 X99.981 Y200.097 E42.9581
G1 X40.214 Y200.097 E43.84345
G1 X40.214 Y114.247 E45.11517
G1 X100.011 Y114.247 E46.00096
G1 X114.717 Y118.91 E46.22949
G1 X125.128 Y110.923 E46.42387
G1 X137.143 Y105.946 E46.61652
G1 X150.039 Y104.249 E46.8092
G1 X162.935 Y105.946 E47.00188
G1 X174.95 Y110.923 E47.19453
G1 X185.269 Y118.841 E47.3872
G1 X193.187 Y129.161 E47.57988
G1 X198.164 Y141.176 E47.77253
G1 X199.862 Y154.072 E47.96521
G1 X198.164 Y166.968 E48.15789
G1 X193.187 Y178.983 E48.35054
M204 S625
M205 X6 Y6
G0 F3750 X193.066 Y179.141
G0 X192.729 Y178.882
G0 X184.955 Y122.094
M204 S500
M205 X5 Y5
;TYPE:SKIN
G1 F1200 X182.016 Y119.154 E48.41212
M204 S625
M205 X6 Y6
G0 F3750 X179.891 Y117.524
M204 S500
M205 X5 Y5
G1 F1200 X186.585 Y124.218 E48.55236
M204 S625
M205 X6 Y6
G0 F3750 X188.214 Y126.343
M204 S500
M205 X5 Y5
G1 F1200 X177.767 Y115.895 E48.77122
M204 S625
M205 X6 Y6
G0 F3750 X175.642 Y114.265
M204 S500
M205 X5 Y5
G1 F1200 X189.844 Y128.467 E49.06874
M204 S625
M205 X6 Y6
G0 F3750 X191.291 Y130.409
M204 S500
M205 X5 Y5
G1 F1200 X173.7 Y112.818 E49.43726
M204 S625
M205 X6 Y6
G0 F3750 X172.855 Y112.468
M204 S500
M205 X5 Y5
G1 F1200 X191.641 Y131.254 E49.83081
M204 S625
M205 X6 Y6
G0 F3750 X191.991 Y132.099
M204 S500
M205 X5 Y5
G1 F1200 X172.01 Y112.118 E50.2494
M204 S625
M205 X6 Y6
G0 F3750 X171.165 Y111.768
M204 S500
M205 X5 Y5
G1 F1200 X192.341 Y132.944 E50.69302
M204 S625
M205 X6 Y6
G0 F3750 X192.691 Y133.789
M204 S500
M205 X5 Y5
G1 F1200 X170.32 Y111.418 E51.16167
M204 S625
M205 X6 Y6
G0 F3750 X169.475 Y111.068
M204 S500
M205 X5 Y5
G1 F1200 X193.041 Y134.634 E51.65536
M204 S625
M205 X6 Y6
G0 F3750 X193.391 Y135.479
M204 S500
M205 X5 Y5
G1 F1200 X168.63 Y110.718 E52.17408
M204 S625
M205 X6 Y6
G0 F3750 X167.785 Y110.368
M204 S500
M205 X5 Y5
G1 F1200 X193.741 Y136.324 E52.71784
M204 S625
M205 X6 Y6
G0 F3750 X194.091 Y137.169
M204 S500
M205 X5 Y5
G1 F1200 X166.94 Y110.018 E53.28663
M204 S625
M205 X6 Y6
G0 F3750 X166.095 Y109.668
M204 S500
M205 X5 Y5
G1 F1200 X194.441 Y138.014 E53.88046
M204 S625
M205 X6 Y6
G0 F3750 X194.791 Y138.859
M204 S500
M205 X5 Y5
G1 F1200 X165.249 Y109.317 E54.49934
M204 S625
M205 X6 Y6
G0 F3750 X164.404 Y108.967
M204 S500
M205 X5 Y5
G1 F1200 X195.141 Y139.704 E55.14325
M204 S625
M205 X6 Y6
G0 F3750 X195.491 Y140.549
M204 S500
M205 X5 Y5
G1 F1200 X163.559 Y108.617 E55.8122
M204 S625
M205 X6 Y6
G0 F3750 X162.714 Y108.267
M204 S500
M205 X5 Y5
G1 F1200 X195.841 Y141.394 E56.50619
M204 S625
M205 X6 Y6
G0 F3750 X196.037 Y142.085
M204 S500
M205 X5 Y5
G1 F1200 X162.024 Y108.072 E57.21873
M204 S625
M205 X6 Y6
G0 F3750 X161.454 Y107.997
M204 S500
M205 X5 Y5
G1 F1200 X196.112 Y142.655 E57.94479
M204 S625
M205 X6 Y6
G0 F3750 X196.188 Y143.225
M204 S500
M205 X5 Y5
G1 F1200 X160.883 Y107.921 E58.68439
M204 S625
M205 X6 Y6
G0 F3750 X160.313 Y107.846
M204 S500
M205 X5 Y5
G1 F1200 X196.263 Y143.795 E59.4375
M204 S625
M205 X6 Y6
G0 F3750 X196.338 Y144.365
M204 S500
M205 X5 Y5
G1 F1200 X159.743 Y107.771 E60.20413
M204 S625
M205 X6 Y6
G0 F3750 X159.173 Y107.696
M204 S500
M205 X5 Y5
G1 F1200 X196.413 Y144.935 E60.98426
M204 S625
M205 X6 Y6
G0 F3750 X196.488 Y145.506
M204 S500
M205 X5 Y5
G1 F1200 X158.604 Y107.621 E61.77791
M204 S625
M205 X6 Y6
G0 F3750 X158.034 Y107.546
M204 S500
M205 X5 Y5
G1 F1200 X196.563 Y146.076 E62.58508
M204 S625
M205 X6 Y6
G0 F3750 X196.638 Y146.646
M204 S500
M205 X5 Y5
G1 F1200 X157.463 Y107.471 E63.40576
M204 S625
M205 X6 Y6
G0 F3750 X156.893 Y107.396
M204 S500
M205 X5 Y5
G1 F1200 X196.713 Y147.216 E64.23996
M204 S625
M205 X6 Y6
G0 F3750 X196.789 Y147.786
M204 S500
M205 X5 Y5
G1 F1200 X156.323 Y107.321 E65.08768
M204 S625
M205 X6 Y6
G0 F3750 X155.753 Y107.246
M204 S500
M205 X5 Y5
G1 F1200 X196.864 Y148.356 E65.94891
M204 S625
M205 X6 Y6
G0 F3750 X196.939 Y148.926
M204 S500
M205 X5 Y5
G1 F1200 X155.183 Y107.171 E66.82365
M204 S625
M205 X6 Y6
G0 F3750 X154.613 Y107.096
M204 S500
M205 X5 Y5
G1 F1200 X197.014 Y149.497 E67.71192
M204 S625
M205 X6 Y6
G0 F3750 X197.089 Y150.067
M204 S500
M205 X5 Y5
G1 F1200 X154.043 Y107.02 E68.61371
M204 S625
M205 X6 Y6
G0 F3750 X153.473 Y106.945
M204 S500
M205 X5 Y5
G1 F1200 X197.164 Y150.637 E69.52901
M204 S625
M205 X6 Y6
G0 F3750 X197.239 Y151.207
M204 S500
M205 X5 Y5
G1 F1200 X152.903 Y106.87 E70.45782
M204 S625
M205 X6 Y6
G0 F3750 X152.333 Y106.795
M204 S500
M205 X5 Y5
G1 F1200 X197.315 Y151.777 E71.40016
M204 S625
M205 X6 Y6
G0 F3750 X197.39 Y152.347
M204 S500
M205 X5 Y5
G1 F1200 X151.763 Y106.72 E72.35601
M204 S625
M205 X6 Y6
G0 F3750 X151.193 Y106.645
M204 S500
M205 X5 Y5
G1 F1200 X197.465 Y152.917 E73.32537
M204 S625
M205 X6 Y6
G0 F3750 X197.54 Y153.487
M204 S500
M205 X5 Y5
G1 F1200 X150.622 Y106.57 E74.30825
M204 S625
M205 X6 Y6
G0 F3750 X150.053 Y106.495
M204 S500
M205 X5 Y5
G1 F1200 X197.615 Y154.058 E75.30465
M204 S625
M205 X6 Y6
G0 F3750 X197.561 Y154.498
M204 S500
M205 X5 Y5
G1 F1200 X149.612 Y106.549 E76.30914
M204 S625
M205 X6 Y6
G0 F3750 X149.174 Y106.606
M204 S500
M205 X5 Y5
G1 F1200 X197.504 Y154.936 E77.32161
M204 S625
M205 X6 Y6
G0 F3750 X197.446 Y155.373
M204 S500
M205 X5 Y5
G1 F1200 X148.737 Y106.664 E78.34203
M204 S625
M205 X6 Y6
G0 F3750 X148.3 Y106.722
M204 S500
M205 X5 Y5
G1 F1200 X197.388 Y155.81 E79.37038
M204 S625
M205 X6 Y6
G0 F3750 X197.33 Y156.247
M204 S500
M205 X5 Y5
G1 F1200 X147.863 Y106.78 E80.40668
M204 S625
M205 X6 Y6
G0 F3750 X147.425 Y106.837
M204 S500
M205 X5 Y5
G1 F1200 X197.273 Y156.685 E81.45095
M204 S625
M205 X6 Y6
G0 F3750 X197.215 Y157.122
M204 S500
M205 X5 Y5
G1 F1200 X146.988 Y106.895 E82.50317
M204 S625
M205 X6 Y6
G0 F3750 X146.55 Y106.952
M204 S500
M205 X5 Y5
G1 F1200 X197.158 Y157.56 E83.56336
M204 S625
M205 X6 Y6
G0 F3750 X197.1 Y157.997
M204 S500
M205 X5 Y5
G1 F1200 X146.113 Y107.01 E84.6315
M204 S625
M205 X6 Y6
G0 F3750 X145.676 Y107.067
M204 S500
M205 X5 Y5
G1 F1200 X197.043 Y158.435 E85.70761
M204 S625
M205 X6 Y6
G0 F3750 X196.985 Y158.872
M204 S500
M205 X5 Y5
G1 F1200 X145.239 Y107.125 E86.79165
M204 S625
M205 X6 Y6
G0 F3750 X144.801 Y107.183
M204 S500
M205 X5 Y5
G1 F1200 X196.927 Y159.309 E87.88365
M204 S625
M205 X6 Y6
G0 F3750 X196.869 Y159.746
M204 S500
M205 X5 Y5
G1 F1200 X144.364 Y107.241 E88.98359
M204 S625
M205 X6 Y6
G0 F3750 X143.926 Y107.298
M204 S500
M205 X5 Y5
G1 F1200 X196.812 Y160.184 E90.09151
M204 S625
M205 X6 Y6
G0 F3750 X196.754 Y160.621
M204 S500
M205 X5 Y5
G1 F1200 X143.489 Y107.356 E91.20737
M204 S625
M205 X6 Y6
G0 F3750 X143.051 Y107.413
M204 S500
M205 X5 Y5
G1 F1200 X196.697 Y161.059 E92.33121
M204 S625
M205 X6 Y6
G0 F3750 X196.639 Y161.496
M204 S500
M205 X5 Y5
G1 F1200 X142.614 Y107.471 E93.46299
M204 S625
M205 X6 Y6
G0 F3750 X142.177 Y107.529
M204 S500
M205 X5 Y5
G1 F1200 X196.582 Y161.933 E94.60272
M204 S625
M205 X6 Y6
G0 F3750 X196.524 Y162.37
M204 S500
M205 X5 Y5
G1 F1200 X141.74 Y107.587 E95.75039
M204 S625
M205 X6 Y6
G0 F3750 X141.302 Y107.644
M204 S500
M205 X5 Y5
G1 F1200 X196.466 Y162.808 E96.90603
M204 S625
M205 X6 Y6
G0 F3750 X196.408 Y163.245
M204 S500
M205 X5 Y5
G1 F1200 X140.865 Y107.702 E98.06961
M204 S625
M205 X6 Y6
G0 F3750 X140.427 Y107.759
M204 S500
M205 X5 Y5
G1 F1200 X196.351 Y163.683 E99.24117
M204 S625
M205 X6 Y6
G0 F3750 X196.293 Y164.12
M204 S500
M205 X5 Y5
G1 F1200 X139.99 Y107.817 E100.42067
M204 S625
M205 X6 Y6
G0 F3750 X139.553 Y107.874
M204 S500
M205 X5 Y5
G1 F1200 X196.236 Y164.557 E101.60813
M204 S625
M205 X6 Y6
G0 F3750 X196.178 Y164.994
M204 S500
M205 X5 Y5
G1 F1200 X139.116 Y107.932 E102.80354
M204 S625
M205 X6 Y6
G0 F3750 X138.678 Y107.99
M204 S500
M205 X5 Y5
G1 F1200 X196.121 Y165.432 E104.00691
M204 S625
M205 X6 Y6
G0 F3750 X196.063 Y165.869
M204 S500
M205 X5 Y5
G1 F1200 X138.241 Y108.048 E105.21822
M204 S625
M205 X6 Y6
G0 F3750 X137.803 Y108.105
M204 S500
M205 X5 Y5
G1 F1200 X196.005 Y166.307 E106.43751
M204 S625
M205 X6 Y6
G0 F3750 X195.874 Y166.671
M204 S500
M205 X5 Y5
G1 F1200 X137.439 Y108.236 E107.66167
M204 S625
M205 X6 Y6
G0 F3750 X137.089 Y108.381
M204 S500
M205 X5 Y5
G1 F1200 X195.729 Y167.021 E108.89014
M204 S625
M205 X6 Y6
G0 F3750 X195.585 Y167.371
M204 S500
M205 X5 Y5
G1 F1200 X136.739 Y108.526 E110.1229
M204 S625
M205 X6 Y6
G0 F3750 X136.389 Y108.67
M204 S500
M205 X5 Y5
G1 F1200 X195.44 Y167.721 E111.35997
M204 S625
M205 X6 Y6
G0 F3750 X195.295 Y168.071
M204 S500
M205 X5 Y5
G1 F1200 X136.039 Y108.815 E112.60134
M204 S625
M205 X6 Y6
G0 F3750 X135.689 Y108.96
M204 S500
M205 X5 Y5
G1 F1200 X195.15 Y168.421 E113.847
M204 S625
M205 X6 Y6
G0 F3750 X195.005 Y168.771
M204 S500
M205 X5 Y5
G1 F1200 X135.339 Y109.105 E115.09695
M204 S625
M205 X6 Y6
G0 F3750 X134.989 Y109.25
M204 S500
M205 X5 Y5
G1 F1200 X194.859 Y169.12 E116.35118
M204 S625
M205 X6 Y6
G0 F3750 X194.714 Y169.47
M204 S500
M205 X5 Y5
G1 F1200 X134.639 Y109.395 E117.6097
M204 S625
M205 X6 Y6
G0 F3750 X134.289 Y109.54
M204 S500
M205 X5 Y5
G1 F1200 X194.569 Y169.82 E118.87252
M204 S625
M205 X6 Y6
G0 F3750 X194.424 Y170.17
M204 S500
M205 X5 Y5
G1 F1200 X133.939 Y109.685 E120.13963
M204 S625
M205 X6 Y6
G0 F3750 X133.589 Y109.83
M204 S500
M205 X5 Y5
G1 F1200 X194.279 Y170.52 E121.41104
M204 S625
M205 X6 Y6
G0 F3750 X194.134 Y170.87
M204 S500
M205 X5 Y5
G1 F1200 X133.239 Y109.975 E122.68674
M204 S625
M205 X6 Y6
G0 F3750 X132.889 Y110.12
M204 S500
M205 X5 Y5
G1 F1200 X193.989 Y171.22 E123.96673
M204 S625
M205 X6 Y6
G0 F3750 X193.844 Y171.57
M204 S500
M205 X5 Y5
G1 F1200 X132.539 Y110.265 E125.25102
M204 S625
M205 X6 Y6
G0 F3750 X132.189 Y110.41
M204 S500
M205 X5 Y5
G1 F1200 X193.699 Y171.92 E126.53961
M204 S625
M205 X6 Y6
G0 F3750 X193.554 Y172.271
M204 S500
M205 X5 Y5
