;START_OF_HEADER
;HEADER_VERSION:0.1
;FLAVOR:Griffin
;GENERATOR.NAME:Cura_SteamEngine
;GENERATOR.VERSION:3.2.0
;GENERATOR.BUILD_DATE:2018-02-06
;TARGET_MACHINE.NAME:Ultimaker 3
;EXTRUDER_TRAIN.0.INITIAL_TEMPERATURE:215
;EXTRUDER_TRAIN.0.MATERIAL.VOLUME_USED:21587
;EXTRUDER_TRAIN.0.MATERIAL.GUID:506c9f0d-e3aa-4bd4-b2d2-23e2425b1aa9
;EXTRUDER_TRAIN.0.NOZZLE.DIAMETER:0.4
;EXTRUDER_TRAIN.0.NOZZLE.NAME:AA 0.4
;BUILD_PLATE.INITIAL_TEMPERATURE:60
;PRINT.TIME:7852
;PRINT.SIZE.MIN.X:9
;PRINT.SIZE.MIN.Y:6
;PRINT.SIZE.MIN.Z:0.27
;PRINT.SIZE.MAX.X:204.388
;PRINT.SIZE.MAX.Y:205.849
;PRINT.SIZE.MAX.Z:4.07
;END_OF_HEADER
;Generated with Cura_SteamEngine 3.2.0
T0
M82 ;absolute extrusion mode

G92 E0
M109 S215
G0 F15000 X9 Y6 Z2
G280
G1 F1500 E-6.5
;LAYER_COUNT:10
;LAYER:0
M107
M204 S625
M205 X6 Y6
G0 F3750 X162.529 Y80.819 Z0.27
M204 S500
M205 X5 Y5
;TYPE:WALL-INNER
G1 F1500 E0
G1 F1200 X162.667 Y81.856 E0.01328
G1 X163.066 Y82.821 E0.02654
G1 X163.702 Y83.651 E0.03982
G1 X164.532 Y84.287 E0.0531
G1 X165.497 Y84.688 E0.06636
G1 X166.534 Y84.824 E0.07964
G1 X167.571 Y84.688 E0.09292
G1 X168.536 Y84.287 E0.10619
G1 X169.366 Y83.651 E0.11947
G1 X170.002 Y82.821 E0.13275
G1 X170.403 Y81.856 E0.14601
G1 X170.539 Y80.819 E0.15929
G1 X170.403 Y79.782 E0.17257
G1 X170.002 Y78.817 E0.18584
G1 X169.366 Y77.987 E0.19912
G1 X168.536 Y77.351 E0.2124
G1 X167.571 Y76.952 E0.22565
G1 X166.534 Y76.814 E0.23894
G1 X165.497 Y76.952 E0.25222
G1 X164.532 Y77.351 E0.26548
G1 X163.702 Y77.987 E0.27876
G1 X163.066 Y78.817 E0.29203
G1 X162.667 Y79.782 E0.30529
G1 X162.529 Y80.819 E0.31857
M204 S625
M205 X6 Y6
G0 F3750 X162.429 Y80.819
G0 X157.864 Y62.448
G0 X157.461 Y61.474
G0 X156.818 Y60.635
G0 X155.979 Y59.993
G0 X155.191 Y59.668
G0 X153.959 Y59.39
G0 X153.959 Y59.49
M204 S500
M205 X5 Y5
G1 F1200 X152.922 Y59.628 E0.33186
G1 X151.957 Y60.027 E0.34512
G1 X151.127 Y60.663 E0.35839
G1 X150.49 Y61.493 E0.37168
G1 X150.09 Y62.458 E0.38494
G1 X149.954 Y63.495 E0.39822
G1 X150.09 Y64.532 E0.4115
G1 X150.49 Y65.497 E0.42476
G1 X151.127 Y66.327 E0.43805
G1 X151.957 Y66.963 E0.45133
G1 X152.922 Y67.364 E0.46459
G1 X153.959 Y67.5 E0.47787
G1 X154.995 Y67.364 E0.49114
G1 X155.961 Y66.963 E0.50442
G1 X156.79 Y66.327 E0.51769
G1 X157.427 Y65.497 E0.53097
G1 X157.826 Y64.532 E0.54423
G1 X157.964 Y63.495 E0.55751
G1 X157.826 Y62.458 E0.5708
G1 X157.427 Y61.493 E0.58406
G1 X156.79 Y60.663 E0.59734
G1 X155.96 Y60.027 E0.61062
G1 X154.995 Y59.628 E0.62388
G1 X153.959 Y59.49 E0.63715
M204 S625
M205 X6 Y6
G0 F3750 X153.959 Y59.39
G0 X157.473 Y44.936
G0 X158.064 Y42.282
G0 X157.964 Y42.282
M204 S500
M205 X5 Y5
G1 F1200 X157.826 Y41.245 E0.65043
G1 X157.427 Y40.28 E0.66369
G1 X156.79 Y39.45 E0.67697
G1 X155.96 Y38.814 E0.69025
G1 X154.995 Y38.414 E0.70351
G1 X153.959 Y38.277 E0.71678
G1 X152.922 Y38.413 E0.73006
G1 X151.957 Y38.814 E0.74333
G1 X151.127 Y39.45 E0.75661
G1 X150.49 Y40.28 E0.76989
G1 X150.09 Y41.245 E0.78316
G1 X149.954 Y42.282 E0.79643
G1 X150.09 Y43.319 E0.80971
G1 X150.49 Y44.284 E0.82298
G1 X151.127 Y45.114 E0.83626
G1 X151.957 Y45.75 E0.84954
G1 X152.922 Y46.151 E0.86281
G1 X153.959 Y46.287 E0.87609
G1 X154.995 Y46.151 E0.88935
G1 X155.961 Y45.75 E0.90263
G1 X156.79 Y45.114 E0.9159
G1 X157.427 Y44.284 E0.92919
G1 X157.826 Y43.319 E0.94244
G1 X157.964 Y42.282 E0.95573
M204 S625
M205 X6 Y6
G0 F3750 X158.064 Y42.282
G0 X174.125 Y38.375
G0 X175.172 Y38.237
G0 X176.219 Y38.375
G0 X177.194 Y38.78
G0 X178.032 Y39.422
G0 X178.674 Y40.261
G0 X178.999 Y41.049
G0 X179.277 Y42.282
G0 X179.177 Y42.282
M204 S500
M205 X5 Y5
G1 F1200 X179.039 Y41.245 E0.96901
G1 X178.64 Y40.28 E0.98227
G1 X178.004 Y39.45 E0.99555
G1 X177.174 Y38.814 E1.00882
G1 X176.209 Y38.413 E1.02209
G1 X175.172 Y38.277 E1.03537
G1 X174.135 Y38.413 E1.04865
G1 X173.17 Y38.814 E1.06192
G1 X172.34 Y39.45 E1.0752
G1 X171.704 Y40.28 E1.08847
G1 X171.303 Y41.245 E1.10174
G1 X171.167 Y42.282 E1.11502
G1 X171.303 Y43.319 E1.1283
G1 X171.704 Y44.284 E1.14157
G1 X172.34 Y45.114 E1.15485
G1 X173.17 Y45.75 E1.16812
G1 X174.135 Y46.151 E1.18139
G1 X175.172 Y46.287 E1.19467
G1 X176.209 Y46.151 E1.20795
G1 X177.174 Y45.75 E1.22122
G1 X178.004 Y45.114 E1.2345
G1 X178.64 Y44.284 E1.24777
G1 X179.039 Y43.319 E1.26103
G1 X179.177 Y42.282 E1.27432
M204 S625
M205 X6 Y6
G0 F3750 X179.277 Y42.282
G0 X179.277 Y63.495
G0 X179.177 Y63.495
M204 S500
M205 X5 Y5
G1 F1200 X179.039 Y62.458 E1.2876
G1 X178.64 Y61.493 E1.30086
G1 X178.004 Y60.663 E1.31413
G1 X177.174 Y60.027 E1.32741
G1 X176.209 Y59.628 E1.34067
G1 X175.172 Y59.49 E1.35395
G1 X174.135 Y59.628 E1.36724
G1 X173.17 Y60.027 E1.38049
G1 X172.34 Y60.663 E1.39377
G1 X171.704 Y61.493 E1.40705
G1 X171.303 Y62.458 E1.42032
G1 X171.167 Y63.495 E1.4336
G1 X171.303 Y64.532 E1.44688
G1 X171.704 Y65.497 E1.46014
G1 X172.34 Y66.327 E1.47342
G1 X173.17 Y66.963 E1.4867
G1 X174.135 Y67.364 E1.49997
G1 X175.172 Y67.5 E1.51325
G1 X176.209 Y67.364 E1.52653
G1 X177.174 Y66.963 E1.53979
G1 X178.004 Y66.327 E1.55307
G1 X178.64 Y65.497 E1.56635
G1 X179.039 Y64.532 E1.57961
G1 X179.177 Y63.495 E1.59289
M204 S625
M205 X6 Y6
G0 F3750 X179.277 Y63.495
G0 X179.077 Y64.542
G0 X178.674 Y65.516
G0 X178.032 Y66.355
G0 X163.674 Y77.959
G0 X77.781 Y164.755
G0 X77.824 Y164.844
M204 S500
M205 X5 Y5
G1 F1200 X77.061 Y165.35 E1.60451
G1 X76.455 Y166.033 E1.61611
G1 X76.046 Y166.852 E1.62773
G1 X75.863 Y167.749 E1.63936
G1 X75.919 Y168.662 E1.65097
G1 X76.208 Y169.528 E1.66256
G1 X76.713 Y170.293 E1.6742
G1 X77.397 Y170.899 E1.6858
G1 X78.215 Y171.308 E1.69742
G1 X79.113 Y171.49 E1.70905
G1 X80.025 Y171.435 E1.72065
G1 X80.892 Y171.146 E1.73225
G1 X81.657 Y170.641 E1.74389
G1 X82.263 Y169.957 E1.7555
G1 X82.672 Y169.138 E1.76712
G1 X82.854 Y168.241 E1.77874
G1 X82.799 Y167.328 E1.79035
G1 X82.51 Y166.46 E1.80197
G1 X82.004 Y165.697 E1.81359
G1 X81.321 Y165.091 E1.82519
G1 X80.502 Y164.682 E1.83681
G1 X79.605 Y164.499 E1.84844
G1 X78.692 Y164.555 E1.86005
G1 X77.824 Y164.844 E1.87167
M204 S625
M205 X6 Y6
G0 F3750 X77.781 Y164.755
G0 X51.428 Y154.445
G0 X43.197 Y157.794
G0 X43.267 Y157.864
M204 S500
M205 X5 Y5
G1 F1200 X39.887 Y166.026 E1.98383
G1 X43.267 Y174.187 E2.09599
G1 X51.428 Y177.567 E2.20815
G1 X59.589 Y174.187 E2.32031
G1 X62.969 Y166.026 E2.43246
G1 X59.589 Y157.864 E2.54463
G1 X51.428 Y154.485 E2.65678
G1 X43.267 Y157.864 E2.76893
M204 S625
M205 X6 Y6
G0 F3750 X43.197 Y157.794
G0 X48.912 Y126.957
G0 X48.868 Y126.868
M204 S500
M205 X5 Y5
G1 F1200 X125.407 Y50.328 E4.14331
G1 X126.415 Y42.665 E4.24145
G1 X130.36 Y33.144 E4.3723
G1 X136.638 Y24.961 E4.50326
G1 X144.82 Y18.684 E4.6342
G1 X154.341 Y14.739 E4.76505
G1 X164.565 Y13.394 E4.89599
G1 X174.789 Y14.739 E5.02692
G1 X184.31 Y18.684 E5.15778
G1 X192.492 Y24.961 E5.28872
G1 X198.77 Y33.144 E5.41967
G1 X202.715 Y42.665 E5.55053
G1 X204.06 Y52.889 E5.68146
G1 X202.715 Y63.112 E5.81238
G1 X198.77 Y72.634 E5.94325
G1 X192.492 Y80.816 E6.0742
G1 X184.31 Y87.094 E6.20514
G1 X174.789 Y91.039 E6.336
G1 X167.125 Y92.047 E6.43415
G1 X90.586 Y168.586 E7.80852
G1 X89.578 Y176.249 E7.90665
G1 X85.633 Y185.771 E8.03752
G1 X79.355 Y193.953 E8.16846
G1 X71.173 Y200.231 E8.29941
G1 X61.652 Y204.176 E8.43027
G1 X51.428 Y205.521 E8.5612
G1 X41.204 Y204.176 E8.69213
G1 X31.683 Y200.231 E8.82299
G1 X23.501 Y193.953 E8.95394
G1 X17.223 Y185.771 E9.08488
G1 X13.278 Y176.249 E9.21575
G1 X11.933 Y166.026 E9.34667
G1 X13.278 Y155.802 E9.4776
G1 X17.223 Y146.281 E9.60846
G1 X23.501 Y138.098 E9.73942
G1 X31.683 Y131.821 E9.87035
G1 X41.204 Y127.876 E10.00121
G1 X48.868 Y126.868 E10.09936
M204 S625
M205 X6 Y6
G0 F3750 X48.716 Y126.56
M204 S500
M205 X5 Y5
;TYPE:WALL-OUTER
G1 F1200 X125.099 Y50.176 E11.69953
G1 X126.099 Y42.581 E11.81301
G1 X130.077 Y32.978 E11.96698
G1 X136.406 Y24.729 E12.121
G1 X144.654 Y18.401 E12.275
G1 X154.257 Y14.423 E12.42897
G1 X164.565 Y13.066 E12.58298
G1 X174.873 Y14.423 E12.737
G1 X184.476 Y18.401 E12.89097
G1 X192.724 Y24.729 E13.04497
G1 X199.053 Y32.978 E13.19899
G1 X203.031 Y42.581 E13.35296
G1 X204.388 Y52.889 E13.50697
G1 X203.031 Y63.196 E13.66097
G1 X199.053 Y72.8 E13.81496
G1 X192.724 Y81.048 E13.96897
G1 X184.476 Y87.377 E14.12297
G1 X174.873 Y91.355 E14.27695
G1 X167.277 Y92.355 E14.39044
G1 X90.894 Y168.738 E15.9906
G1 X89.894 Y176.333 E16.10408
G1 X85.916 Y185.937 E16.25807
G1 X79.587 Y194.185 E16.41207
G1 X71.339 Y200.514 E16.56608
G1 X61.736 Y204.492 E16.72005
G1 X51.428 Y205.849 E16.87407
G1 X41.12 Y204.492 E17.02808
G1 X31.517 Y200.514 E17.18205
G1 X23.269 Y194.185 E17.33606
G1 X16.94 Y185.937 E17.49006
G1 X12.962 Y176.333 E17.64405
G1 X11.605 Y166.026 E17.79805
G1 X12.962 Y155.718 E17.95206
G1 X16.94 Y146.115 E18.10604
G1 X23.269 Y137.866 E18.26006
G1 X31.517 Y131.538 E18.41405
G1 X41.12 Y127.56 E18.56803
G1 X48.716 Y126.56 E18.68152
M204 S625
M205 X6 Y6
G0 F3750 X48.857 Y126.419
G0 X49.156 Y126.72
G0 X43.124 Y157.949
G0 X43.516 Y158.113
M204 S500
M205 X5 Y5
G1 F1200 X40.239 Y166.026 E18.80839
G1 X43.516 Y173.938 E18.93525
G1 X51.428 Y177.215 E19.06211
G1 X59.34 Y173.938 E19.18897
G1 X62.617 Y166.026 E19.31582
G1 X59.34 Y158.113 E19.4427
G1 X51.428 Y154.837 E19.56955
G1 X43.516 Y158.113 E19.6964
M204 S625
M205 X6 Y6
G0 F3750 X43.44 Y158.297
G0 X43.048 Y158.133
G0 X43.239 Y157.836
G0 X51.428 Y154.445
G0 X59.617 Y157.836
G0 X61.433 Y162.234
G0 X78.238 Y171.414
G0 X78.322 Y170.998
M204 S500
M205 X5 Y5
G1 F1200 X79.136 Y171.163 E19.7087
G1 X79.963 Y171.113 E19.72098
G1 X80.749 Y170.851 E19.73325
G1 X81.442 Y170.393 E19.74555
G1 X81.991 Y169.773 E19.75782
G1 X82.362 Y169.031 E19.77011
G1 X82.527 Y168.218 E19.7824
G1 X82.477 Y167.39 E19.79469
G1 X82.215 Y166.604 E19.80696
G1 X81.757 Y165.912 E19.81925
G1 X81.137 Y165.363 E19.83152
G1 X80.395 Y164.992 E19.84381
G1 X79.582 Y164.826 E19.8561
G1 X78.754 Y164.877 E19.86839
G1 X77.968 Y165.139 E19.88066
G1 X77.276 Y165.597 E19.89296
G1 X76.727 Y166.217 E19.90522
G1 X76.356 Y166.959 E19.91751
G1 X76.19 Y167.772 E19.9298
G1 X76.241 Y168.6 E19.94209
G1 X76.503 Y169.385 E19.95435
G1 X76.961 Y170.078 E19.96666
G1 X77.581 Y170.627 E19.97892
G1 X78.322 Y170.998 E19.9912
M204 S625
M205 X6 Y6
G0 F3750 X78.518 Y171.037
G0 X78.434 Y171.454
G0 X79.111 Y171.529
G0 X80.032 Y171.474
G0 X80.909 Y171.181
G0 X81.605 Y170.722
G0 X162.436 Y80.763
G0 X162.857 Y80.819
M204 S500
M205 X5 Y5
G1 F1200 X162.984 Y81.771 E20.00543
G1 X163.35 Y82.657 E20.01963
G1 X163.934 Y83.419 E20.03385
G1 X164.696 Y84.003 E20.04807
G1 X165.582 Y84.371 E20.06228
G1 X166.534 Y84.496 E20.0765
G1 X167.486 Y84.371 E20.09073
G1 X168.372 Y84.003 E20.10494
G1 X169.134 Y83.419 E20.11916
G1 X169.718 Y82.657 E20.13338
G1 X170.086 Y81.771 E20.14759
G1 X170.211 Y80.819 E20.16182
G1 X170.086 Y79.867 E20.17604
G1 X169.718 Y78.981 E20.19025
G1 X169.134 Y78.219 E20.20447
G1 X168.372 Y77.635 E20.2187
G1 X167.486 Y77.269 E20.2329
G1 X166.534 Y77.142 E20.24712
G1 X165.582 Y77.269 E20.26135
G1 X164.696 Y77.635 E20.27555
G1 X163.934 Y78.219 E20.28977
G1 X163.35 Y78.981 E20.30399
G1 X162.984 Y79.867 E20.31819
G1 X162.857 Y80.819 E20.33242
M204 S625
M205 X6 Y6
G0 F3750 X162.883 Y81.017
G0 X162.462 Y81.072
G0 X157.864 Y62.448
G0 X157.461 Y61.474
G0 X156.818 Y60.635
G0 X155.979 Y59.993
G0 X155.191 Y59.668
G0 X154.016 Y59.397
G0 X153.959 Y59.818
M204 S500
M205 X5 Y5
G1 F1200 X153.007 Y59.945 E20.34665
G1 X152.121 Y60.311 E20.36085
G1 X151.359 Y60.895 E20.37507
G1 X150.774 Y61.657 E20.3893
G1 X150.407 Y62.543 E20.40351
G1 X150.282 Y63.495 E20.41773
G1 X150.407 Y64.447 E20.43195
G1 X150.774 Y65.333 E20.44616
G1 X151.359 Y66.095 E20.46039
G1 X152.121 Y66.679 E20.47461
G1 X153.007 Y67.047 E20.48882
G1 X153.959 Y67.172 E20.50305
G1 X154.91 Y67.047 E20.51726
G1 X155.797 Y66.679 E20.53148
G1 X156.558 Y66.095 E20.54569
G1 X157.143 Y65.333 E20.55992
G1 X157.509 Y64.447 E20.57412
G1 X157.636 Y63.495 E20.58835
G1 X157.509 Y62.543 E20.60258
G1 X157.143 Y61.657 E20.61678
G1 X156.558 Y60.895 E20.63101
G1 X155.796 Y60.311 E20.64523
G1 X154.91 Y59.945 E20.65943
G1 X153.959 Y59.818 E20.67364
M204 S625
M205 X6 Y6
G0 F3750 X153.761 Y59.844
G0 X153.706 Y59.423
G0 X157.448 Y44.939
G0 X158.057 Y42.338
G0 X157.636 Y42.282
M204 S500
M205 X5 Y5
G1 F1200 X157.509 Y41.33 E20.68787
G1 X157.143 Y40.444 E20.70207
G1 X156.558 Y39.682 E20.7163
G1 X155.796 Y39.098 E20.73052
G1 X154.91 Y38.731 E20.74473
G1 X153.959 Y38.605 E20.75894
G1 X153.007 Y38.73 E20.77316
G1 X152.121 Y39.098 E20.78737
G1 X151.359 Y39.682 E20.80159
G1 X150.774 Y40.444 E20.81582
G1 X150.407 Y41.33 E20.83003
G1 X150.282 Y42.282 E20.84425
G1 X150.407 Y43.234 E20.85848
G1 X150.774 Y44.12 E20.87268
G1 X151.359 Y44.882 E20.88691
G1 X152.121 Y45.466 E20.90114
G1 X153.007 Y45.834 E20.91535
G1 X153.959 Y45.959 E20.92957
G1 X154.91 Y45.834 E20.94378
G1 X155.797 Y45.466 E20.958
G1 X156.558 Y44.882 E20.97221
G1 X157.143 Y44.12 E20.98644
G1 X157.509 Y43.234 E21.00064
G1 X157.636 Y42.282 E21.01487
M204 S625
M205 X6 Y6
G0 F3750 X157.61 Y42.084
G0 X158.031 Y42.029
G0 X174.125 Y38.375
G0 X175.172 Y38.237
G0 X176.219 Y38.375
G0 X177.194 Y38.78
G0 X178.032 Y39.422
G0 X178.674 Y40.261
G0 X178.999 Y41.049
G0 X179.27 Y42.338
G0 X178.849 Y42.282
M204 S500
M205 X5 Y5
G1 F1200 X178.722 Y41.33 E21.0291
G1 X178.356 Y40.444 E21.0433
G1 X177.772 Y39.682 E21.05752
G1 X177.01 Y39.098 E21.07174
G1 X176.124 Y38.73 E21.08595
G1 X175.172 Y38.605 E21.10018
G1 X174.22 Y38.73 E21.1144
G1 X173.334 Y39.098 E21.12861
G1 X172.572 Y39.682 E21.14283
G1 X171.988 Y40.444 E21.15706
G1 X171.62 Y41.33 E21.17127
G1 X171.495 Y42.282 E21.18549
G1 X171.62 Y43.234 E21.19971
G1 X171.988 Y44.12 E21.21393
G1 X172.572 Y44.882 E21.22815
G1 X173.334 Y45.466 E21.24237
G1 X174.22 Y45.834 E21.25658
G1 X175.172 Y45.959 E21.2708
G1 X176.124 Y45.834 E21.28503
G1 X177.01 Y45.466 E21.29924
G1 X177.772 Y44.882 E21.31346
G1 X178.356 Y44.12 E21.32768
G1 X178.722 Y43.234 E21.34188
G1 X178.849 Y42.282 E21.35611
M204 S625
M205 X6 Y6
G0 F3750 X178.823 Y42.084
G0 X179.244 Y42.029
G0 X179.27 Y63.551
G0 X178.849 Y63.495
M204 S500
M205 X5 Y5
G1 F1200 X178.722 Y62.543 E21.37034
G1 X178.356 Y61.657 E21.38454
G1 X177.772 Y60.895 E21.39876
G1 X177.01 Y60.311 E21.41298
G1 X176.124 Y59.945 E21.42718
G1 X175.172 Y59.818 E21.44141
G1 X174.22 Y59.945 E21.45563
G1 X173.334 Y60.311 E21.46984
G1 X172.572 Y60.895 E21.48406
G1 X171.988 Y61.657 E21.49828
G1 X171.62 Y62.543 E21.51249
G1 X171.495 Y63.495 E21.52671
G1 X171.62 Y64.447 E21.54094
G1 X171.988 Y65.333 E21.55515
G1 X172.572 Y66.095 E21.56937
G1 X173.334 Y66.679 E21.58359
G1 X174.22 Y67.047 E21.5978
G1 X175.172 Y67.172 E21.61203
G1 X176.124 Y67.047 E21.62625
G1 X177.01 Y66.679 E21.64046
G1 X177.772 Y66.095 E21.65468
G1 X178.356 Y65.333 E21.6689
G1 X178.722 Y64.447 E21.6831
G1 X178.849 Y63.495 E21.69733
M204 S625
M205 X6 Y6
G0 F3750 X178.823 Y63.297
G0 X179.494 Y63.495
M204 S500
M205 X5 Y5
;TYPE:SKIN
G1 F1200 X179.346 Y62.376 E21.71405
G1 X178.915 Y61.334 E21.73076
G1 X178.229 Y60.438 E21.74747
G1 X177.333 Y59.752 E21.76419
G1 X176.291 Y59.321 E21.78089
G1 X175.172 Y59.173 E21.79761
G1 X174.053 Y59.321 E21.81433
G1 X173.011 Y59.752 E21.83104
G1 X172.115 Y60.438 E21.84775
G1 X171.429 Y61.334 E21.86447
G1 X170.996 Y62.376 E21.88118
G1 X170.85 Y63.495 E21.8979
G1 X170.996 Y64.614 E21.91462
G1 X171.429 Y65.656 E21.93133
G1 X172.115 Y66.552 E21.94805
G1 X173.011 Y67.238 E21.96477
G1 X174.053 Y67.671 E21.98148
G1 X175.172 Y67.817 E21.9982
G1 X176.291 Y67.671 E22.01491
G1 X177.333 Y67.238 E22.03163
G1 X178.229 Y66.552 E22.04834
G1 X178.915 Y65.656 E22.06506
G1 X179.346 Y64.614 E22.08176
G1 X179.494 Y63.495 E22.09849
M204 S625
M205 X6 Y6
G0 F3750 X176.291 Y46.458
M204 S500
M205 X5 Y5
G1 F1200 X177.333 Y46.025 E22.1152
G1 X178.229 Y45.339 E22.13192
G1 X178.915 Y44.443 E22.14863
G1 X179.346 Y43.401 E22.16534
G1 X179.494 Y42.282 E22.18206
G1 X179.346 Y41.163 E22.19878
G1 X178.915 Y40.121 E22.21548
G1 X178.229 Y39.225 E22.2322
G1 X177.333 Y38.539 E22.24891
G1 X176.291 Y38.106 E22.26563
G1 X175.172 Y37.96 E22.28235
G1 X174.053 Y38.106 E22.29906
G1 X173.011 Y38.539 E22.31578
G1 X172.115 Y39.225 E22.33249
G1 X171.429 Y40.121 E22.34921
G1 X170.996 Y41.163 E22.36592
G1 X170.85 Y42.282 E22.38264
G1 X170.996 Y43.401 E22.39936
