;START_OF_HEADER
;HEADER_VERSION:0.1
;FLAVOR:Griffin
;GENERATOR.NAME:Cura_SteamEngine
;GENERATOR.VERSION:3.2.1
;GENERATOR.BUILD_DATE:2018-02-14
;TARGET_MACHINE.NAME:Ultimaker 3
;EXTRUDER_TRAIN.0.INITIAL_TEMPERATURE:215
;EXTRUDER_TRAIN.0.MATERIAL.VOLUME_USED:30525
;EXTRUDER_TRAIN.0.MATERIAL.GUID:506c9f0d-e3aa-4bd4-b2d2-23e2425b1aa9
;EXTRUDER_TRAIN.0.NOZZLE.DIAMETER:0.4
;EXTRUDER_TRAIN.0.NOZZLE.NAME:AA 0.4
;BUILD_PLATE.INITIAL_TEMPERATURE:60
;PRINT.TIME:10735
;PRINT.SIZE.MIN.X:9
;PRINT.SIZE.MIN.Y:6
;PRINT.SIZE.MIN.Z:0.27
;PRINT.SIZE.MAX.X:204.415
;PRINT.SIZE.MAX.Y:209.534
;PRINT.SIZE.MAX.Z:2.07
;END_OF_HEADER
;Generated with Cura_SteamEngine 3.2.1
T0
M82 ;absolute extrusion mode

G92 E0
M109 S215
G0 F15000 X9 Y6 Z2
G280
G1 F1500 E-6.5
;LAYER_COUNT:10
;LAYER:0
M107
M204 S625
M205 X6 Y6
G0 F3750 X170.567 Y84.505 Z0.27
M204 S500
M205 X5 Y5
;TYPE:WALL-INNER
G1 F1500 E0
G1 F1200 X170.429 Y83.468 E0.01328
G1 X170.03 Y82.503 E0.02654
G1 X169.393 Y81.673 E0.03983
G1 X168.564 Y81.037 E0.05309
G1 X167.598 Y80.636 E0.06637
G1 X166.562 Y80.5 E0.07964
G1 X165.525 Y80.636 E0.09292
G1 X164.56 Y81.037 E0.10619
G1 X163.73 Y81.673 E0.11947
G1 X163.093 Y82.503 E0.13275
G1 X162.693 Y83.468 E0.14601
G1 X162.557 Y84.505 E0.15929
G1 X162.693 Y85.542 E0.17257
G1 X163.093 Y86.507 E0.18584
G1 X163.73 Y87.337 E0.19912
G1 X164.56 Y87.973 E0.2124
G1 X165.525 Y88.374 E0.22567
G1 X166.562 Y88.51 E0.23895
G1 X167.598 Y88.374 E0.25221
G1 X168.564 Y87.973 E0.26549
G1 X169.393 Y87.337 E0.27876
G1 X170.03 Y86.507 E0.29204
G1 X170.429 Y85.542 E0.3053
G1 X170.567 Y84.505 E0.31859
M204 S625
M205 X6 Y6
G0 F3750 X170.667 Y84.505
G0 X170.467 Y83.458
G0 X170.105 Y82.582
G0 X158.091 Y67.181
G0 X157.991 Y67.181
M204 S500
M205 X5 Y5
G1 F1200 X157.853 Y66.144 E0.33187
G1 X157.454 Y65.179 E0.34513
G1 X156.818 Y64.349 E0.35841
G1 X155.988 Y63.713 E0.37168
G1 X155.023 Y63.312 E0.38495
G1 X153.986 Y63.176 E0.39823
G1 X152.949 Y63.312 E0.41151
G1 X151.984 Y63.713 E0.42478
G1 X151.154 Y64.349 E0.43806
G1 X150.518 Y65.179 E0.45133
G1 X150.117 Y66.144 E0.4646
G1 X149.981 Y67.181 E0.47788
G1 X150.117 Y68.218 E0.49116
G1 X150.518 Y69.183 E0.50443
G1 X151.154 Y70.013 E0.51771
G1 X151.984 Y70.649 E0.53098
G1 X152.949 Y71.05 E0.54425
G1 X153.986 Y71.186 E0.55753
G1 X155.023 Y71.05 E0.57081
G1 X155.988 Y70.649 E0.58408
G1 X156.818 Y70.013 E0.59736
G1 X157.454 Y69.183 E0.61063
G1 X157.853 Y68.218 E0.62389
G1 X157.991 Y67.181 E0.63717
M204 S625
M205 X6 Y6
G0 F3750 X158.091 Y67.181
G0 X174.137 Y63.216
G0 X174.162 Y63.312
M204 S500
M205 X5 Y5
G1 F1200 X173.197 Y63.713 E0.65044
G1 X172.367 Y64.349 E0.66372
G1 X171.731 Y65.179 E0.677
G1 X171.33 Y66.144 E0.69026
G1 X171.194 Y67.181 E0.70354
G1 X171.33 Y68.218 E0.71682
G1 X171.731 Y69.183 E0.73009
G1 X172.367 Y70.013 E0.74337
G1 X173.197 Y70.649 E0.75665
G1 X174.162 Y71.05 E0.76991
G1 X175.199 Y71.186 E0.78319
G1 X176.236 Y71.05 E0.79647
G1 X177.201 Y70.649 E0.80974
G1 X178.031 Y70.013 E0.82302
G1 X178.667 Y69.183 E0.8363
G1 X179.068 Y68.218 E0.84956
G1 X179.204 Y67.181 E0.86284
G1 X179.068 Y66.144 E0.87612
G1 X178.667 Y65.179 E0.88939
G1 X178.031 Y64.349 E0.90267
G1 X177.201 Y63.713 E0.91595
G1 X176.236 Y63.312 E0.92921
G1 X175.199 Y63.176 E0.94249
G1 X174.162 Y63.312 E0.95577
M204 S625
M205 X6 Y6
G0 F3750 X174.137 Y63.216
G0 X175.199 Y50.073
G0 X175.199 Y49.973
M204 S500
M205 X5 Y5
G1 F1200 X176.236 Y49.835 E0.96906
G1 X177.201 Y49.436 E0.98232
G1 X178.031 Y48.8 E0.99559
G1 X178.667 Y47.97 E1.00887
G1 X179.068 Y47.005 E1.02214
G1 X179.204 Y45.968 E1.03542
G1 X179.068 Y44.931 E1.0487
G1 X178.667 Y43.966 E1.06197
G1 X178.031 Y43.136 E1.07524
G1 X177.201 Y42.5 E1.08852
G1 X176.236 Y42.099 E1.10179
G1 X175.199 Y41.963 E1.11507
G1 X174.162 Y42.099 E1.12835
G1 X173.197 Y42.5 E1.14162
G1 X172.367 Y43.136 E1.15489
G1 X171.731 Y43.966 E1.16817
G1 X171.33 Y44.931 E1.18144
G1 X171.194 Y45.968 E1.19472
G1 X171.33 Y47.005 E1.208
G1 X171.731 Y47.97 E1.22127
G1 X172.367 Y48.8 E1.23454
G1 X173.197 Y49.436 E1.24782
G1 X174.162 Y49.835 E1.26108
G1 X175.199 Y49.973 E1.27436
M204 S625
M205 X6 Y6
G0 F3750 X175.199 Y50.073
G0 X153.986 Y50.073
G0 X153.986 Y49.973
M204 S500
M205 X5 Y5
G1 F1200 X155.023 Y49.835 E1.28764
G1 X155.988 Y49.436 E1.3009
G1 X156.818 Y48.8 E1.31418
G1 X157.454 Y47.97 E1.32746
G1 X157.853 Y47.005 E1.34071
G1 X157.991 Y45.968 E1.354
G1 X157.853 Y44.931 E1.36728
G1 X157.454 Y43.966 E1.38054
G1 X156.818 Y43.136 E1.39382
G1 X155.988 Y42.5 E1.40709
G1 X155.023 Y42.099 E1.42036
G1 X153.986 Y41.963 E1.43364
G1 X152.949 Y42.099 E1.44692
G1 X151.984 Y42.5 E1.46019
G1 X151.154 Y43.136 E1.47347
G1 X150.518 Y43.966 E1.48674
G1 X150.117 Y44.931 E1.50001
G1 X149.981 Y45.968 E1.51329
G1 X150.117 Y47.005 E1.52657
G1 X150.518 Y47.97 E1.53984
G1 X151.154 Y48.8 E1.55312
G1 X151.984 Y49.436 E1.56639
G1 X152.949 Y49.835 E1.57965
G1 X153.986 Y49.973 E1.59294
M204 S625
M205 X6 Y6
G0 F3750 X153.986 Y50.073
G0 X125.523 Y54.058
G0 X125.434 Y54.014
M204 S500
M205 X5 Y5
G1 F1200 X126.442 Y46.35 E1.69108
G1 X130.387 Y36.829 E1.82194
G1 X136.665 Y28.647 E1.95289
G1 X144.847 Y22.369 E2.08383
G1 X154.369 Y18.424 E2.2147
G1 X164.592 Y17.079 E2.34562
G1 X174.816 Y18.424 E2.47655
G1 X184.337 Y22.369 E2.60741
G1 X192.52 Y28.647 E2.73837
G1 X198.797 Y36.829 E2.8693
G1 X202.742 Y46.351 E3.00017
G1 X204.087 Y56.574 E3.13109
G1 X202.742 Y66.798 E3.26203
G1 X198.797 Y76.319 E3.39288
G1 X192.52 Y84.501 E3.52382
G1 X184.337 Y90.779 E3.65478
G1 X174.816 Y94.724 E3.78563
G1 X167.153 Y95.732 E3.88377
G1 X90.613 Y172.272 E5.25815
G1 X89.605 Y179.935 E5.35629
G1 X85.66 Y189.456 E5.48715
G1 X79.383 Y197.638 E5.61808
G1 X71.2 Y203.916 E5.74904
G1 X61.679 Y207.861 E5.8799
G1 X51.455 Y209.206 E6.01083
G1 X41.232 Y207.861 E6.14175
G1 X31.71 Y203.916 E6.27262
G1 X23.528 Y197.638 E6.40357
G1 X17.25 Y189.456 E6.53451
G1 X13.305 Y179.935 E6.66537
G1 X11.96 Y169.711 E6.7963
G1 X13.305 Y159.487 E6.92723
G1 X17.25 Y149.966 E7.05809
G1 X23.528 Y141.784 E7.18904
G1 X31.71 Y135.506 E7.31998
G1 X41.232 Y131.561 E7.45085
G1 X48.895 Y130.553 E7.54899
G1 X125.434 Y54.014 E8.92335
M204 S625
M205 X6 Y6
G0 F3750 X125.523 Y54.058
G0 X77.808 Y168.44
G0 X77.851 Y168.529
M204 S500
M205 X5 Y5
G1 F1200 X77.088 Y169.035 E8.93498
G1 X76.482 Y169.718 E8.94657
G1 X76.073 Y170.537 E8.9582
G1 X75.89 Y171.434 E8.96982
G1 X75.946 Y172.347 E8.98143
G1 X76.235 Y173.215 E8.99305
G1 X76.74 Y173.978 E9.00467
G1 X77.424 Y174.585 E9.01628
G1 X78.243 Y174.993 E9.0279
G1 X79.139 Y175.176 E9.03951
G1 X80.053 Y175.121 E9.05113
G1 X80.921 Y174.832 E9.06275
G1 X81.684 Y174.326 E9.07438
G1 X82.29 Y173.641 E9.08599
G1 X82.699 Y172.824 E9.09759
G1 X82.882 Y171.926 E9.10922
G1 X82.826 Y171.014 E9.12083
G1 X82.537 Y170.146 E9.13244
G1 X82.032 Y169.383 E9.14406
G1 X81.348 Y168.776 E9.15567
G1 X80.529 Y168.367 E9.1673
G1 X79.632 Y168.185 E9.17892
G1 X78.719 Y168.24 E9.19053
G1 X77.851 Y168.529 E9.20215
M204 S625
M205 X6 Y6
G0 F3750 X77.808 Y168.44
G0 X51.455 Y158.13
G0 X43.224 Y161.48
G0 X43.294 Y161.55
M204 S500
M205 X5 Y5
G1 F1200 X39.914 Y169.711 E9.3143
G1 X43.294 Y177.872 E9.42646
G1 X51.455 Y181.252 E9.53862
G1 X59.616 Y177.872 E9.65077
G1 X62.996 Y169.711 E9.76293
G1 X59.616 Y161.55 E9.87509
G1 X51.455 Y158.17 E9.98724
G1 X43.294 Y161.55 E10.0994
M204 S625
M205 X6 Y6
G0 F3750 X43.543 Y161.799
M204 S500
M205 X5 Y5
;TYPE:WALL-OUTER
G1 F1200 X40.266 Y169.711 E10.22626
G1 X43.543 Y177.623 E10.35312
G1 X51.455 Y180.9 E10.47998
G1 X59.367 Y177.623 E10.60683
G1 X62.644 Y169.711 E10.73369
G1 X59.367 Y161.799 E10.86055
G1 X51.455 Y158.522 E10.98741
G1 X43.543 Y161.799 E11.11427
M204 S625
M205 X6 Y6
G0 F3750 X43.467 Y161.983
G0 X43.075 Y161.819
G0 X43.266 Y161.522
G0 X51.455 Y158.13
G0 X80.506 Y168.261
G0 X80.422 Y168.677
M204 S500
M205 X5 Y5
G1 F1200 X79.609 Y168.512 E11.12655
G1 X78.781 Y168.562 E11.13884
G1 X77.995 Y168.824 E11.15112
G1 X77.303 Y169.282 E11.16341
G1 X76.754 Y169.902 E11.17568
G1 X76.383 Y170.644 E11.18796
G1 X76.217 Y171.457 E11.20026
G1 X76.268 Y172.285 E11.21254
G1 X76.53 Y173.071 E11.22482
G1 X76.988 Y173.763 E11.23711
G1 X77.608 Y174.313 E11.24939
G1 X78.35 Y174.683 E11.26167
G1 X79.162 Y174.849 E11.27395
G1 X79.991 Y174.799 E11.28625
G1 X80.777 Y174.537 E11.29852
G1 X81.469 Y174.079 E11.31082
G1 X82.018 Y173.458 E11.32309
G1 X82.389 Y172.717 E11.33537
G1 X82.555 Y171.903 E11.34768
G1 X82.504 Y171.076 E11.35995
G1 X82.242 Y170.29 E11.37222
G1 X81.784 Y169.598 E11.38452
G1 X81.164 Y169.048 E11.39679
G1 X80.422 Y168.677 E11.40908
M204 S625
M205 X6 Y6
G0 F3750 X80.226 Y168.638
G0 X80.31 Y168.221
G0 X169.421 Y87.365
G0 X170.064 Y86.526
G0 X170.389 Y85.738
G0 X170.66 Y84.561
G0 X170.239 Y84.505
M204 S500
M205 X5 Y5
G1 F1200 X170.112 Y83.553 E11.42331
G1 X169.746 Y82.667 E11.43751
G1 X169.161 Y81.905 E11.45174
G1 X168.4 Y81.321 E11.46595
G1 X167.513 Y80.953 E11.48017
G1 X166.562 Y80.828 E11.49438
G1 X165.61 Y80.953 E11.50861
G1 X164.724 Y81.321 E11.52282
G1 X163.962 Y81.905 E11.53704
G1 X163.377 Y82.667 E11.55127
G1 X163.01 Y83.553 E11.56548
G1 X162.885 Y84.505 E11.5797
G1 X163.01 Y85.457 E11.59392
G1 X163.377 Y86.343 E11.60813
G1 X163.962 Y87.105 E11.62236
G1 X164.724 Y87.689 E11.63658
G1 X165.61 Y88.057 E11.65079
G1 X166.562 Y88.182 E11.66502
G1 X167.513 Y88.057 E11.67922
G1 X168.4 Y87.689 E11.69345
G1 X169.161 Y87.105 E11.70766
G1 X169.746 Y86.343 E11.72189
G1 X170.112 Y85.457 E11.73609
G1 X170.239 Y84.505 E11.75032
M204 S625
M205 X6 Y6
G0 F3750 X170.213 Y84.307
G0 X170.634 Y84.252
G0 X171.154 Y67.181
G0 X171.292 Y66.134
G0 X171.697 Y65.159
G0 X172.339 Y64.321
G0 X173.017 Y63.802
G0 X174.085 Y63.236
G0 X174.247 Y63.629
M204 S500
M205 X5 Y5
G1 F1200 X173.361 Y63.997 E11.76453
G1 X172.599 Y64.581 E11.77875
G1 X172.015 Y65.343 E11.79297
G1 X171.647 Y66.229 E11.80718
G1 X171.522 Y67.181 E11.82141
G1 X171.647 Y68.133 E11.83563
G1 X172.015 Y69.019 E11.84984
G1 X172.599 Y69.781 E11.86406
G1 X173.361 Y70.365 E11.87829
G1 X174.247 Y70.733 E11.8925
G1 X175.199 Y70.858 E11.90672
G1 X176.151 Y70.733 E11.92094
G1 X177.037 Y70.365 E11.93516
G1 X177.799 Y69.781 E11.94938
G1 X178.383 Y69.019 E11.9636
G1 X178.751 Y68.133 E11.97781
G1 X178.876 Y67.181 E11.99203
G1 X178.751 Y66.229 E12.00626
G1 X178.383 Y65.343 E12.02047
G1 X177.799 Y64.581 E12.03469
G1 X177.037 Y63.997 E12.04891
G1 X176.151 Y63.629 E12.06312
G1 X175.199 Y63.504 E12.07735
G1 X174.247 Y63.629 E12.09157
M204 S625
M205 X6 Y6
G0 F3750 X174.063 Y63.705
G0 X173.901 Y63.312
G0 X175.143 Y50.066
G0 X175.199 Y49.645
M204 S500
M205 X5 Y5
G1 F1200 X176.151 Y49.518 E12.1058
G1 X177.037 Y49.152 E12.12
G1 X177.799 Y48.568 E12.13422
G1 X178.383 Y47.806 E12.14844
G1 X178.751 Y46.92 E12.16265
G1 X178.876 Y45.968 E12.17688
G1 X178.751 Y45.016 E12.1911
G1 X178.383 Y44.13 E12.20531
G1 X177.799 Y43.368 E12.21953
G1 X177.037 Y42.784 E12.23375
G1 X176.151 Y42.416 E12.24797
G1 X175.199 Y42.291 E12.26219
G1 X174.247 Y42.416 E12.27641
G1 X173.361 Y42.784 E12.29062
G1 X172.599 Y43.368 E12.30485
G1 X172.015 Y44.13 E12.31907
G1 X171.647 Y45.016 E12.33328
G1 X171.522 Y45.968 E12.3475
G1 X171.647 Y46.92 E12.36173
G1 X172.015 Y47.806 E12.37594
G1 X172.599 Y48.568 E12.39016
G1 X173.361 Y49.152 E12.40438
G1 X174.247 Y49.518 E12.41858
G1 X175.199 Y49.645 E12.43281
M204 S625
M205 X6 Y6
G0 F3750 X175.397 Y49.619
G0 X175.452 Y50.04
G0 X153.93 Y50.066
G0 X153.986 Y49.645
M204 S500
M205 X5 Y5
G1 F1200 X154.938 Y49.518 E12.44703
G1 X155.824 Y49.152 E12.46124
G1 X156.586 Y48.568 E12.47546
G1 X157.17 Y47.806 E12.48968
G1 X157.536 Y46.92 E12.50388
G1 X157.663 Y45.968 E12.51811
G1 X157.536 Y45.016 E12.53233
G1 X157.17 Y44.13 E12.54653
G1 X156.586 Y43.368 E12.56075
G1 X155.824 Y42.784 E12.57498
G1 X154.938 Y42.416 E12.58919
G1 X153.986 Y42.291 E12.60341
G1 X153.034 Y42.416 E12.61763
G1 X152.148 Y42.784 E12.63185
G1 X151.386 Y43.368 E12.64607
G1 X150.802 Y44.13 E12.66029
G1 X150.434 Y45.016 E12.6745
G1 X150.309 Y45.968 E12.68872
G1 X150.434 Y46.92 E12.70295
G1 X150.802 Y47.806 E12.71716
G1 X151.386 Y48.568 E12.73138
G1 X152.148 Y49.152 E12.7456
G1 X153.034 Y49.518 E12.7598
G1 X153.986 Y49.645 E12.77403
M204 S625
M205 X6 Y6
G0 F3750 X154.184 Y49.619
G0 X154.239 Y50.04
G0 X157.525 Y64.524
G0 X158.084 Y67.237
G0 X157.663 Y67.181
M204 S500
M205 X5 Y5
G1 F1200 X157.536 Y66.229 E12.78826
G1 X157.17 Y65.343 E12.80246
G1 X156.586 Y64.581 E12.81668
G1 X155.824 Y63.997 E12.8309
G1 X154.938 Y63.629 E12.84511
G1 X153.986 Y63.504 E12.85934
G1 X153.034 Y63.629 E12.87356
G1 X152.148 Y63.997 E12.88777
G1 X151.386 Y64.581 E12.90199
G1 X150.802 Y65.343 E12.91621
G1 X150.434 Y66.229 E12.93043
G1 X150.309 Y67.181 E12.94465
G1 X150.434 Y68.133 E12.95887
G1 X150.802 Y69.019 E12.97308
G1 X151.386 Y69.781 E12.98731
G1 X152.148 Y70.365 E13.00153
G1 X153.034 Y70.733 E13.01574
G1 X153.986 Y70.858 E13.02996
G1 X154.938 Y70.733 E13.04419
G1 X155.824 Y70.365 E13.0584
G1 X156.586 Y69.781 E13.07262
G1 X157.17 Y69.019 E13.08684
G1 X157.536 Y68.133 E13.10104
G1 X157.663 Y67.181 E13.11527
M204 S625
M205 X6 Y6
G0 F3750 X157.637 Y66.983
G0 X158.058 Y66.928
G0 X157.891 Y66.134
G0 X157.488 Y65.16
G0 X156.846 Y64.321
G0 X156.008 Y63.679
G0 X155.219 Y63.352
G0 X125.547 Y53.918
G0 X125.126 Y53.862
M204 S500
M205 X5 Y5
G1 F1200 X126.126 Y46.266 E13.22876
G1 X130.104 Y36.663 E13.38273
G1 X136.433 Y28.415 E13.53674
G1 X144.681 Y22.086 E13.69075
G1 X154.285 Y18.108 E13.84473
G1 X164.592 Y16.751 E13.99873
G1 X174.9 Y18.108 E14.15275
G1 X184.503 Y22.086 E14.30672
G1 X192.752 Y28.415 E14.46074
G1 X199.08 Y36.663 E14.61473
G1 X203.058 Y46.267 E14.76872
G1 X204.415 Y56.574 E14.92272
G1 X203.058 Y66.882 E15.07673
G1 X199.08 Y76.485 E15.23071
G1 X192.752 Y84.733 E15.3847
G1 X184.503 Y91.062 E15.53872
G1 X174.9 Y95.04 E15.6927
G1 X167.305 Y96.04 E15.80617
G1 X90.921 Y172.424 E17.40636
G1 X89.921 Y180.019 E17.51984
G1 X85.943 Y189.622 E17.67381
G1 X79.615 Y197.87 E17.82781
G1 X71.366 Y204.199 E17.98182
G1 X61.763 Y208.177 E18.1358
G1 X51.455 Y209.534 E18.28981
G1 X41.148 Y208.177 E18.44381
G1 X31.544 Y204.199 E18.5978
G1 X23.296 Y197.87 E18.7518
G1 X16.967 Y189.622 E18.90581
G1 X12.989 Y180.019 E19.05978
G1 X11.632 Y169.711 E19.2138
G1 X12.989 Y159.403 E19.36781
G1 X16.967 Y149.8 E19.52178
G1 X23.296 Y141.552 E19.67579
G1 X31.544 Y135.223 E19.8298
G1 X41.148 Y131.245 E19.98378
G1 X48.743 Y130.245 E20.09726
G1 X125.126 Y53.862 E21.69742
M204 S625
M205 X6 Y6
G0 F3750 X125.152 Y53.664
G0 X125.573 Y53.72
G0 X125.732 Y54.161
M204 S500
M205 X5 Y5
;TYPE:SKIN
G1 F1200 X126.751 Y46.429 E21.81295
G1 X130.662 Y36.987 E21.96434
G1 X136.89 Y28.872 E22.11587
G1 X145.005 Y22.644 E22.26741
G1 X154.448 Y18.733 E22.41881
G1 X164.592 Y17.398 E22.57037
G1 X174.737 Y18.733 E22.72195
G1 X184.179 Y22.644 E22.87334
G1 X192.295 Y28.872 E23.02488
G1 X198.522 Y36.987 E23.17641
G1 X202.433 Y46.43 E23.32781
G1 X203.768 Y56.574 E23.47937
G1 X202.433 Y66.719 E23.63095
G1 X198.522 Y76.161 E23.78234
G1 X192.295 Y84.276 E23.93386
G1 X184.179 Y90.504 E24.08541
G1 X174.737 Y94.415 E24.2368
G1 X167.006 Y95.434 E24.35231
G1 X90.315 Y172.125 E25.95892
G1 X89.296 Y179.856 E26.07444
G1 X85.385 Y189.298 E26.22583
G1 X79.158 Y197.413 E26.37735
G1 X71.042 Y203.641 E26.52889
G1 X61.6 Y207.552 E26.68029
G1 X51.455 Y208.887 E26.83186
G1 X41.311 Y207.552 E26.98342
G1 X31.868 Y203.641 E27.13483
G1 X23.753 Y197.413 E27.28636
G1 X17.525 Y189.298 E27.43789
G1 X13.614 Y179.856 E27.58928
G1 X12.279 Y169.711 E27.74086
G1 X13.614 Y159.566 E27.89244
G1 X17.525 Y150.124 E28.04383
G1 X23.753 Y142.009 E28.19536
G1 X31.868 Y135.781 E28.34689
G1 X41.311 Y131.87 E28.4983
G1 X49.042 Y130.851 E28.61381
G1 X125.732 Y54.161 E30.2204
M204 S625
M205 X6 Y6
G0 F3750 X149.81 Y47.087
M204 S500
M205 X5 Y5
G1 F1200 X150.243 Y48.129 E30.23712
G1 X150.929 Y49.025 E30.25383
G1 X151.825 Y49.711 E30.27055
G1 X152.867 Y50.142 E30.28725
G1 X153.986 Y50.29 E30.30397
G1 X155.105 Y50.142 E30.32069
G1 X156.147 Y49.711 E30.3374
G1 X157.043 Y49.025 E30.35411
G1 X157.729 Y48.129 E30.37083
G1 X158.16 Y47.087 E30.38753
G1 X158.308 Y45.968 E30.40425
G1 X158.16 Y44.849 E30.42098
G1 X157.729 Y43.807 E30.43768
G1 X157.043 Y42.911 E30.4544
G1 X156.147 Y42.225 E30.47111
G1 X155.105 Y41.792 E30.48783
G1 X153.986 Y41.646 E30.50454
