;START_OF_HEADER
;HEADER_VERSION:0.1
;FLAVOR:Griffin
;GENERATOR.NAME:Cura_SteamEngine
;GENERATOR.VERSION:3.2.0
;GENERATOR.BUILD_DATE:2018-02-06
;TARGET_MACHINE.NAME:Ultimaker 3
;EXTRUDER_TRAIN.0.INITIAL_TEMPERATURE:215
;EXTRUDER_TRAIN.0.MATERIAL.VOLUME_USED:38873
;EXTRUDER_TRAIN.0.MATERIAL.GUID:506c9f0d-e3aa-4bd4-b2d2-23e2425b1aa9
;EXTRUDER_TRAIN.0.NOZZLE.DIAMETER:0.4
;EXTRUDER_TRAIN.0.NOZZLE.NAME:AA 0.4
;BUILD_PLATE.INITIAL_TEMPERATURE:60
;PRINT.TIME:13050
;PRINT.SIZE.MIN.X:9
;PRINT.SIZE.MIN.Y:6
;PRINT.SIZE.MIN.Z:0.27
;PRINT.SIZE.MAX.X:202.82
;PRINT.SIZE.MAX.Y:202.38
;PRINT.SIZE.MAX.Z:22.07
;END_OF_HEADER
;Generated with Cura_SteamEngine 3.2.0
T0
M82 ;absolute extrusion mode

G92 E0
M109 S215
G0 F15000 X9 Y6 Z2
G280
G1 F1500 E-6.5
;LAYER_COUNT:110
;LAYER:0
M107
M204 S625
M205 X6 Y6
G0 F3750 X47.3 Y123.399 Z0.27
M204 S500
M205 X5 Y5
;TYPE:WALL-INNER
G1 F1500 E0
G1 F1200 X123.839 Y46.859 E1.37438
G1 X124.847 Y39.196 E1.47251
G1 X128.792 Y29.675 E1.60337
G1 X135.07 Y21.493 E1.73432
G1 X143.252 Y15.215 E1.86526
G1 X152.773 Y11.27 E1.99612
G1 X162.997 Y9.925 E2.12705
G1 X173.221 Y11.27 E2.25798
G1 X182.742 Y15.215 E2.38884
G1 X190.924 Y21.493 E2.51979
G1 X197.202 Y29.675 E2.65073
G1 X201.147 Y39.196 E2.78159
G1 X202.492 Y49.42 E2.91252
G1 X201.147 Y59.644 E3.04346
G1 X197.202 Y69.165 E3.17431
G1 X190.924 Y77.347 E3.30526
G1 X182.742 Y83.625 E3.4362
G1 X173.221 Y87.57 E3.56706
G1 X165.557 Y88.578 E3.66521
G1 X89.018 Y165.117 E5.03958
G1 X88.01 Y172.781 E5.13773
G1 X84.065 Y182.302 E5.26858
G1 X77.787 Y190.484 E5.39953
G1 X69.605 Y196.762 E5.53047
G1 X60.084 Y200.707 E5.66133
G1 X49.86 Y202.052 E5.79226
G1 X39.636 Y200.707 E5.9232
G1 X30.115 Y196.762 E6.05405
G1 X21.933 Y190.484 E6.185
G1 X15.655 Y182.302 E6.31594
G1 X11.71 Y172.781 E6.4468
G1 X10.365 Y162.557 E6.57773
G1 X11.71 Y152.333 E6.70867
G1 X15.655 Y142.812 E6.83952
G1 X21.933 Y134.63 E6.97047
G1 X30.115 Y128.352 E7.10141
G1 X39.636 Y124.407 E7.23227
G1 X47.3 Y123.399 E7.33042
M204 S625
M205 X6 Y6
G0 F3750 X47.148 Y123.091
M204 S500
M205 X5 Y5
;TYPE:WALL-OUTER
G1 F1200 X123.531 Y46.707 E8.93059
G1 X124.531 Y39.112 E9.04407
G1 X128.509 Y29.509 E9.19804
G1 X134.838 Y21.261 E9.35205
G1 X143.086 Y14.932 E9.50606
G1 X152.689 Y10.954 E9.66003
G1 X162.997 Y9.597 E9.81404
G1 X173.305 Y10.954 E9.96806
G1 X182.908 Y14.932 E10.12203
G1 X191.156 Y21.261 E10.27604
G1 X197.485 Y29.509 E10.43004
G1 X201.463 Y39.112 E10.58402
G1 X202.82 Y49.42 E10.73803
G1 X201.463 Y59.728 E10.89204
G1 X197.485 Y69.331 E11.04602
G1 X191.156 Y77.579 E11.20002
G1 X182.908 Y83.908 E11.35403
G1 X173.305 Y87.886 E11.508
G1 X165.709 Y88.886 E11.62149
G1 X89.326 Y165.269 E13.22166
G1 X88.326 Y172.865 E13.33515
G1 X84.348 Y182.468 E13.48912
G1 X78.019 Y190.716 E13.64313
G1 X69.771 Y197.045 E13.79714
G1 X60.168 Y201.023 E13.95111
G1 X49.86 Y202.38 E14.10512
G1 X39.552 Y201.023 E14.25914
G1 X29.949 Y197.045 E14.41311
G1 X21.701 Y190.716 E14.56712
G1 X15.372 Y182.468 E14.72112
G1 X11.394 Y172.865 E14.8751
G1 X10.037 Y162.557 E15.02911
G1 X11.394 Y152.249 E15.18312
G1 X15.372 Y142.646 E15.3371
G1 X21.701 Y134.398 E15.4911
G1 X29.949 Y128.069 E15.64511
G1 X39.552 Y124.091 E15.79908
G1 X47.148 Y123.091 E15.91257
M204 S625
M205 X6 Y6
G0 F3750 X47.289 Y122.95
G0 X47.588 Y123.251
G0 X47.447 Y123.697
M204 S500
M205 X5 Y5
;TYPE:SKIN
G1 F1200 X124.137 Y47.006 E17.51918
G1 X125.156 Y39.275 E17.63469
G1 X129.067 Y29.833 E17.78608
G1 X135.295 Y21.718 E17.93761
G1 X143.41 Y15.49 E18.08915
G1 X152.852 Y11.579 E18.24054
G1 X162.997 Y10.244 E18.39211
G1 X173.142 Y11.579 E18.54369
G1 X182.584 Y15.49 E18.69508
G1 X190.699 Y21.718 E18.84661
G1 X196.927 Y29.833 E18.99814
G1 X200.838 Y39.275 E19.14954
G1 X202.173 Y49.42 E19.30111
G1 X200.838 Y59.565 E19.45269
G1 X196.927 Y69.007 E19.60408
G1 X190.699 Y77.122 E19.75561
G1 X182.584 Y83.35 E19.90714
G1 X173.142 Y87.261 E20.05854
G1 X165.41 Y88.28 E20.17406
G1 X88.72 Y164.97 E21.78066
G1 X87.701 Y172.702 E21.89618
G1 X83.79 Y182.144 E22.04757
G1 X77.562 Y190.259 E22.19911
G1 X69.447 Y196.487 E22.35064
G1 X60.005 Y200.398 E22.50203
G1 X49.86 Y201.733 E22.65361
G1 X39.715 Y200.398 E22.80518
G1 X30.273 Y196.487 E22.95657
G1 X22.158 Y190.259 E23.1081
G1 X15.93 Y182.144 E23.25964
G1 X12.019 Y172.702 E23.41103
G1 X10.684 Y162.557 E23.5626
G1 X12.019 Y152.412 E23.71418
G1 X15.93 Y142.97 E23.86557
G1 X22.158 Y134.855 E24.0171
G1 X30.273 Y128.627 E24.16864
G1 X39.715 Y124.716 E24.32003
G1 X47.447 Y123.697 E24.43555
M204 S625
M205 X6 Y6
G0 F3750 X22.691 Y190.487
M204 S500
M205 X5 Y5
G1 F1200 X21.928 Y189.724 E24.45154
M204 S625
M205 X6 Y6
G0 F3750 X20.295 Y187.596
M204 S500
M205 X5 Y5
G1 F1200 X24.818 Y192.12 E24.5463
M204 S625
M205 X6 Y6
G0 F3750 X26.946 Y193.752
M204 S500
M205 X5 Y5
G1 F1200 X18.662 Y185.469 E24.71983
M204 S625
M205 X6 Y6
G0 F3750 X17.029 Y183.34
M204 S500
M205 X5 Y5
G1 F1200 X29.074 Y195.386 E24.97218
M204 S625
M205 X6 Y6
G0 F3750 X30.685 Y196.502
M204 S500
M205 X5 Y5
G1 F1200 X15.913 Y181.729 E25.28165
M204 S625
M205 X6 Y6
G0 F3750 X15.563 Y180.884
M204 S500
M205 X5 Y5
G1 F1200 X31.53 Y196.852 E25.61616
M204 S625
M205 X6 Y6
G0 F3750 X32.374 Y197.201
M204 S500
M205 X5 Y5
G1 F1200 X15.214 Y180.04 E25.97565
M204 S625
M205 X6 Y6
G0 F3750 X14.864 Y179.195
M204 S500
M205 X5 Y5
G1 F1200 X33.219 Y197.551 E26.36019
M204 S625
M205 X6 Y6
G0 F3750 X34.064 Y197.901
M204 S500
M205 X5 Y5
G1 F1200 X14.514 Y178.35 E26.76975
M204 S625
M205 X6 Y6
G0 F3750 X14.164 Y177.505
M204 S500
M205 X5 Y5
G1 F1200 X34.909 Y198.251 E27.20436
M204 S625
M205 X6 Y6
G0 F3750 X35.754 Y198.6
M204 S500
M205 X5 Y5
G1 F1200 X13.814 Y176.661 E27.66397
M204 S625
M205 X6 Y6
G0 F3750 X13.464 Y175.816
M204 S500
M205 X5 Y5
G1 F1200 X36.599 Y198.95 E28.14862
M204 S625
M205 X6 Y6
G0 F3750 X37.444 Y199.3
M204 S500
M205 X5 Y5
G1 F1200 X13.114 Y174.971 E28.6583
M204 S625
M205 X6 Y6
G0 F3750 X12.764 Y174.126
M204 S500
M205 X5 Y5
G1 F1200 X38.289 Y199.65 E29.19302
M204 S625
M205 X6 Y6
G0 F3750 X39.134 Y200
M204 S500
M205 X5 Y5
G1 F1200 X12.414 Y173.281 E29.75277
M204 S625
M205 X6 Y6
G0 F3750 X12.138 Y172.51
M204 S500
M205 X5 Y5
G1 F1200 X39.904 Y200.276 E30.33445
M204 S625
M205 X6 Y6
G0 F3750 X40.474 Y200.351
M204 S500
M205 X5 Y5
G1 F1200 X12.063 Y171.94 E30.92963
M204 S625
M205 X6 Y6
G0 F3750 X11.988 Y171.37
M204 S500
M205 X5 Y5
G1 F1200 X41.044 Y200.426 E31.53833
M204 S625
M205 X6 Y6
G0 F3750 X41.614 Y200.501
M204 S500
M205 X5 Y5
G1 F1200 X11.914 Y170.8 E32.16054
M204 S625
M205 X6 Y6
G0 F3750 X11.839 Y170.231
M204 S500
M205 X5 Y5
G1 F1200 X42.184 Y200.576 E32.79624
M204 S625
M205 X6 Y6
G0 F3750 X42.754 Y200.651
M204 S500
M205 X5 Y5
G1 F1200 X11.764 Y169.661 E33.44545
M204 S625
M205 X6 Y6
G0 F3750 X11.689 Y169.091
M204 S500
M205 X5 Y5
G1 F1200 X43.324 Y200.726 E34.10818
M204 S625
M205 X6 Y6
G0 F3750 X43.894 Y200.801
M204 S500
M205 X5 Y5
G1 F1200 X11.614 Y168.521 E34.78442
M204 S625
M205 X6 Y6
G0 F3750 X11.538 Y167.95
M204 S500
M205 X5 Y5
G1 F1200 X44.464 Y200.877 E35.47421
M204 S625
M205 X6 Y6
G0 F3750 X45.034 Y200.951
M204 S500
M205 X5 Y5
G1 F1200 X11.463 Y167.38 E36.17749
M204 S625
M205 X6 Y6
G0 F3750 X11.388 Y166.81
M204 S500
M205 X5 Y5
G1 F1200 X45.604 Y201.026 E36.89429
M204 S625
M205 X6 Y6
G0 F3750 X46.174 Y201.101
M204 S500
M205 X5 Y5
G1 F1200 X11.313 Y166.24 E37.6246
M204 S625
M205 X6 Y6
G0 F3750 X11.238 Y165.67
M204 S500
M205 X5 Y5
G1 F1200 X46.744 Y201.176 E38.36842
M204 S625
M205 X6 Y6
G0 F3750 X47.314 Y201.251
M204 S500
M205 X5 Y5
G1 F1200 X11.163 Y165.1 E39.12575
M204 S625
M205 X6 Y6
G0 F3750 X11.088 Y164.531
M204 S500
M205 X5 Y5
G1 F1200 X47.884 Y201.326 E39.89659
M204 S625
M205 X6 Y6
G0 F3750 X48.454 Y201.401
M204 S500
M205 X5 Y5
G1 F1200 X11.013 Y163.961 E40.68094
M204 S625
M205 X6 Y6
G0 F3750 X10.938 Y163.391
M204 S500
M205 X5 Y5
G1 F1200 X49.024 Y201.476 E41.4788
M204 S625
M205 X6 Y6
G0 F3750 X49.594 Y201.551
M204 S500
M205 X5 Y5
G1 F1200 X10.863 Y162.821 E42.29017
M204 S625
M205 X6 Y6
G0 F3750 X10.859 Y162.322
M204 S500
M205 X5 Y5
G1 F1200 X50.093 Y201.555 E43.11208
M204 S625
M205 X6 Y6
G0 F3750 X50.531 Y201.498
M204 S500
M205 X5 Y5
G1 F1200 X10.917 Y161.884 E43.94196
M204 S625
M205 X6 Y6
G0 F3750 X10.975 Y161.447
M204 S500
M205 X5 Y5
G1 F1200 X50.968 Y201.44 E44.77978
M204 S625
M205 X6 Y6
G0 F3750 X51.405 Y201.383
M204 S500
M205 X5 Y5
G1 F1200 X11.032 Y161.009 E45.62557
M204 S625
M205 X6 Y6
G0 F3750 X11.089 Y160.571
M204 S500
M205 X5 Y5
G1 F1200 X51.843 Y201.326 E46.47935
M204 S625
M205 X6 Y6
G0 F3750 X52.28 Y201.268
M204 S500
M205 X5 Y5
G1 F1200 X11.147 Y160.134 E47.34106
M204 S625
M205 X6 Y6
G0 F3750 X11.204 Y159.697
M204 S500
M205 X5 Y5
G1 F1200 X52.718 Y201.21 E48.21074
M204 S625
M205 X6 Y6
G0 F3750 X53.155 Y201.152
M204 S500
M205 X5 Y5
G1 F1200 X11.262 Y159.26 E49.08835
M204 S625
M205 X6 Y6
G0 F3750 X11.32 Y158.822
M204 S500
M205 X5 Y5
G1 F1200 X53.593 Y201.095 E49.97393
M204 S625
M205 X6 Y6
G0 F3750 X54.03 Y201.038
M204 S500
M205 X5 Y5
G1 F1200 X11.377 Y158.384 E50.86749
M204 S625
M205 X6 Y6
G0 F3750 X11.435 Y157.947
M204 S500
M205 X5 Y5
G1 F1200 X54.467 Y200.98 E51.76899
M204 S625
M205 X6 Y6
G0 F3750 X54.905 Y200.922
M204 S500
M205 X5 Y5
G1 F1200 X11.492 Y157.51 E52.67844
M204 S625
M205 X6 Y6
G0 F3750 X11.549 Y157.072
M204 S500
M205 X5 Y5
G1 F1200 X55.343 Y200.865 E53.59588
M204 S625
M205 X6 Y6
G0 F3750 X55.78 Y200.807
M204 S500
M205 X5 Y5
G1 F1200 X11.607 Y156.635 E54.52126
M204 S625
M205 X6 Y6
G0 F3750 X11.665 Y156.197
M204 S500
M205 X5 Y5
G1 F1200 X56.217 Y200.75 E55.4546
M204 S625
M205 X6 Y6
G0 F3750 X56.655 Y200.693
M204 S500
M205 X5 Y5
G1 F1200 X11.722 Y155.76 E56.39591
M204 S625
M205 X6 Y6
G0 F3750 X11.78 Y155.323
M204 S500
M205 X5 Y5
G1 F1200 X57.092 Y200.635 E57.34516
M204 S625
M205 X6 Y6
G0 F3750 X57.53 Y200.577
M204 S500
M205 X5 Y5
G1 F1200 X11.837 Y154.885 E58.30238
M204 S625
M205 X6 Y6
G0 F3750 X11.895 Y154.448
M204 S500
M205 X5 Y5
G1 F1200 X57.967 Y200.519 E59.26754
M204 S625
M205 X6 Y6
G0 F3750 X58.404 Y200.462
M204 S500
M205 X5 Y5
G1 F1200 X11.952 Y154.01 E60.24067
M204 S625
M205 X6 Y6
G0 F3750 X12.01 Y153.572
M204 S500
M205 X5 Y5
G1 F1200 X58.842 Y200.405 E61.22177
M204 S625
M205 X6 Y6
G0 F3750 X59.279 Y200.347
M204 S500
M205 X5 Y5
G1 F1200 X12.068 Y153.135 E62.21082
M204 S625
M205 X6 Y6
G0 F3750 X12.125 Y152.698
M204 S500
M205 X5 Y5
G1 F1200 X59.717 Y200.29 E63.20783
M204 S625
M205 X6 Y6
G0 F3750 X60.117 Y200.195
M204 S500
M205 X5 Y5
G1 F1200 X12.22 Y152.298 E64.21123
M204 S625
M205 X6 Y6
G0 F3750 X12.365 Y151.948
M204 S500
M205 X5 Y5
G1 F1200 X60.467 Y200.05 E65.21893
M204 S625
M205 X6 Y6
G0 F3750 X60.817 Y199.905
M204 S500
M205 X5 Y5
G1 F1200 X12.51 Y151.598 E66.23092
M204 S625
M205 X6 Y6
G0 F3750 X12.655 Y151.248
M204 S500
M205 X5 Y5
G1 F1200 X61.167 Y199.76 E67.24721
M204 S625
M205 X6 Y6
G0 F3750 X61.517 Y199.615
M204 S500
M205 X5 Y5
G1 F1200 X12.8 Y150.898 E68.26779
M204 S625
M205 X6 Y6
G0 F3750 X12.945 Y150.548
M204 S500
M205 X5 Y5
G1 F1200 X61.866 Y199.469 E69.29265
M204 S625
M205 X6 Y6
G0 F3750 X62.216 Y199.324
M204 S500
M205 X5 Y5
G1 F1200 X13.09 Y150.198 E70.3218
M204 S625
M205 X6 Y6
G0 F3750 X13.235 Y149.848
M204 S500
M205 X5 Y5
G1 F1200 X62.566 Y199.179 E71.35524
M204 S625
M205 X6 Y6
G0 F3750 X62.916 Y199.035
M204 S500
M205 X5 Y5
G1 F1200 X13.38 Y149.498 E72.39299
M204 S625
M205 X6 Y6
G0 F3750 X13.525 Y149.148
M204 S500
M205 X5 Y5
G1 F1200 X63.266 Y198.89 E73.43504
M204 S625
M205 X6 Y6
G0 F3750 X63.616 Y198.745
M204 S500
M205 X5 Y5
G1 F1200 X13.67 Y148.798 E74.48137
M204 S625
M205 X6 Y6
G0 F3750 X13.815 Y148.448
M204 S500
M205 X5 Y5
G1 F1200 X63.967 Y198.6 E75.53202
M204 S625
M205 X6 Y6
G0 F3750 X64.317 Y198.455
M204 S500
M205 X5 Y5
G1 F1200 X13.96 Y148.098 E76.58696
M204 S625
M205 X6 Y6
G0 F3750 X14.105 Y147.748
M204 S500
M205 X5 Y5
G1 F1200 X64.667 Y198.31 E77.64619
M204 S625
M205 X6 Y6
G0 F3750 X65.017 Y198.165
M204 S500
M205 X5 Y5
G1 F1200 X14.25 Y147.398 E78.70972
M204 S625
M205 X6 Y6
G0 F3750 X14.395 Y147.048
M204 S500
M205 X5 Y5
G1 F1200 X65.367 Y198.02 E79.77754
M204 S625
M205 X6 Y6
G0 F3750 X65.717 Y197.875
M204 S500
M205 X5 Y5
G1 F1200 X14.54 Y146.698 E80.84966
M204 S625
M205 X6 Y6
G0 F3750 X14.685 Y146.348
M204 S500
M205 X5 Y5
G1 F1200 X66.067 Y197.73 E81.92607
M204 S625
M205 X6 Y6
G0 F3750 X66.417 Y197.585
M204 S500
M205 X5 Y5
G1 F1200 X14.83 Y145.998 E83.00677
M204 S625
M205 X6 Y6
G0 F3750 X14.975 Y145.648
M204 S500
M205 X5 Y5
G1 F1200 X66.767 Y197.44 E84.09177
M204 S625
M205 X6 Y6
G0 F3750 X67.117 Y197.295
M204 S500
M205 X5 Y5
G1 F1200 X15.12 Y145.298 E85.18107
M204 S625
M205 X6 Y6
G0 F3750 X15.265 Y144.948
M204 S500
M205 X5 Y5
G1 F1200 X67.467 Y197.15 E86.27466
M204 S625
M205 X6 Y6
G0 F3750 X67.817 Y197.005
M204 S500
M205 X5 Y5
G1 F1200 X15.409 Y144.598 E87.37255
M204 S625
M205 X6 Y6
G0 F3750 X15.554 Y144.248
M204 S500
M205 X5 Y5
G1 F1200 X68.167 Y196.86 E88.47474
M204 S625
M205 X6 Y6
G0 F3750 X68.517 Y196.715
M204 S500
M205 X5 Y5
G1 F1200 X15.699 Y143.898 E89.58122
M204 S625
M205 X6 Y6
G0 F3750 X15.844 Y143.548
M204 S500
M205 X5 Y5
G1 F1200 X68.867 Y196.57 E90.692
M204 S625
M205 X6 Y6
G0 F3750 X69.217 Y196.425
M204 S500
M205 X5 Y5
G1 F1200 X15.989 Y143.198 E91.80708
M204 S625
M205 X6 Y6
G0 F3750 X16.173 Y142.887
M204 S500
M205 X5 Y5
G1 F1200 X69.528 Y196.241 E92.92481
M204 S625
M205 X6 Y6
G0 F3750 X69.808 Y196.026
M204 S500
M205 X5 Y5
G1 F1200 X16.388 Y142.607 E94.0439
M204 S625
M205 X6 Y6
G0 F3750 X16.603 Y142.327
M204 S500
M205 X5 Y5
G1 F1200 X70.088 Y195.812 E95.16437
M204 S625
M205 X6 Y6
G0 F3750 X70.368 Y195.597
M204 S500
M205 X5 Y5
G1 F1200 X16.818 Y142.047 E96.2862
M204 S625
M205 X6 Y6
G0 F3750 X17.033 Y141.767
M204 S500
M205 X5 Y5
G1 F1200 X70.648 Y195.382 E97.40939
M204 S625
M205 X6 Y6
G0 F3750 X70.928 Y195.167
M204 S500
M205 X5 Y5
G1 F1200 X17.248 Y141.487 E98.53394
M204 S625
M205 X6 Y6
G0 F3750 X17.463 Y141.207
M204 S500
M205 X5 Y5
G1 F1200 X71.208 Y194.952 E99.65986
M204 S625
M205 X6 Y6
G0 F3750 X71.488 Y194.737
M204 S500
M205 X5 Y5
G1 F1200 X17.678 Y140.927 E100.78713
M204 S625
M205 X6 Y6
G0 F3750 X17.892 Y140.646
M204 S500
M205 X5 Y5
G1 F1200 X71.769 Y194.522 E101.9158
M204 S625
M205 X6 Y6
G0 F3750 X72.049 Y194.307
M204 S500
M205 X5 Y5
G1 F1200 X18.107 Y140.366 E103.04583
M204 S625
M205 X6 Y6
G0 F3750 X18.322 Y140.086
M204 S500
M205 X5 Y5
G1 F1200 X72.329 Y194.093 E104.17724
M204 S625
M205 X6 Y6
G0 F3750 X72.609 Y193.878
M204 S500
M205 X5 Y5
G1 F1200 X18.537 Y139.806 E105.31
M204 S625
M205 X6 Y6
G0 F3750 X18.752 Y139.526
M204 S500
M205 X5 Y5
G1 F1200 X72.889 Y193.663 E106.44413
M204 S625
M205 X6 Y6
G0 F3750 X73.169 Y193.448
M204 S500
M205 X5 Y5
G1 F1200 X18.967 Y139.246 E107.57962
M204 S625
M205 X6 Y6
G0 F3750 X19.182 Y138.966
M204 S500
M205 X5 Y5
G1 F1200 X73.449 Y193.233 E108.71646
M204 S625
M205 X6 Y6
G0 F3750 X73.729 Y193.018
M204 S500
M205 X5 Y5
G1 F1200 X19.397 Y138.686 E109.85468
M204 S625
M205 X6 Y6
G0 F3750 X19.612 Y138.406
M204 S500
M205 X5 Y5
G1 F1200 X74.009 Y192.803 E110.99425
M204 S625
M205 X6 Y6
G0 F3750 X74.289 Y192.588
M204 S500
M205 X5 Y5
G1 F1200 X19.827 Y138.126 E112.13518
M204 S625
M205 X6 Y6
G0 F3750 X20.042 Y137.846
M204 S500
M205 X5 Y5
G1 F1200 X74.569 Y192.373 E113.27748
M204 S625
M205 X6 Y6
G0 F3750 X74.849 Y192.158
M204 S500
M205 X5 Y5
G1 F1200 X20.257 Y137.566 E114.42114
M204 S625
M205 X6 Y6
G0 F3750 X20.472 Y137.286
M204 S500
M205 X5 Y5
G1 F1200 X75.129 Y191.943 E115.56616
M204 S625
M205 X6 Y6
G0 F3750 X75.409 Y191.728
M204 S500
M205 X5 Y5
G1 F1200 X20.687 Y137.006 E116.71254
M204 S625
M205 X6 Y6
G0 F3750 X20.902 Y136.726
M204 S500
M205 X5 Y5
G1 F1200 X75.689 Y191.513 E117.86028
M204 S625
M205 X6 Y6
G0 F3750 X75.969 Y191.298
M204 S500
M205 X5 Y5
G1 F1200 X21.117 Y136.446 E119.00939
M204 S625
M205 X6 Y6
G0 F3750 X21.331 Y136.165
M204 S500
M205 X5 Y5
G1 F1200 X76.25 Y191.084 E120.1599
M204 S625
M205 X6 Y6
G0 F3750 X76.53 Y190.869
M204 S500
M205 X5 Y5
G1 F1200 X21.546 Y135.885 E121.31177
M204 S625
M205 X6 Y6
G0 F3750 X21.761 Y135.605
M204 S500
M205 X5 Y5
G1 F1200 X76.81 Y190.654 E122.465
M204 S625
M205 X6 Y6
G0 F3750 X77.09 Y190.439
M204 S500
M205 X5 Y5
G1 F1200 X21.976 Y135.325 E123.61959
M204 S625
M205 X6 Y6
G0 F3750 X22.191 Y135.045
M204 S500
M205 X5 Y5
