;START_OF_HEADER
;HEADER_VERSION:0.1
;FLAVOR:Griffin
;GENERATOR.NAME:Cura_SteamEngine
;GENERATOR.VERSION:2.6.2
;GENERATOR.BUILD_DATE:2017-07-06
;TARGET_MACHINE.NAME:Ultimaker 3
;EXTRUDER_TRAIN.0.INITIAL_TEMPERATURE:245
;EXTRUDER_TRAIN.0.MATERIAL.VOLUME_USED:11178
;EXTRUDER_TRAIN.0.MATERIAL.GUID:506c9f0d-e3aa-4bd4-b2d2-23e2425b1aa9
;EXTRUDER_TRAIN.0.NOZZLE.DIAMETER:0.4
;BUILD_PLATE.INITIAL_TEMPERATURE:60
;PRINT.TIME:8851
;PRINT.SIZE.MIN.X:8.502
;PRINT.SIZE.MIN.Y:6
;PRINT.SIZE.MIN.Z:0.27
;PRINT.SIZE.MAX.X:201.285
;PRINT.SIZE.MAX.Y:198.929
;PRINT.SIZE.MAX.Z:16.47
;END_OF_HEADER
;Generated with Cura_SteamEngine 2.6.2

T0
G92 E0

M109 S245
G0 F15000 X9 Y6 Z2
G280
G1 F1500 E-6.5
;LAYER_COUNT:109
;LAYER:0
M107
M204 S625
M205 X6
G0 F3750 X171.709 Y84.109 Z0.27
M204 S500
M205 X5
;TYPE:WALL-INNER
G1 F1500 E0
G1 F1200 X171.686 Y84.119 E0.00032
G1 X171.66 Y84.122 E0.00065
G1 X164.022 Y85.127 E0.09847
G1 X87.483 Y161.667 E1.47284
G1 X86.479 Y169.302 E1.57062
G1 X86.475 Y169.33 E1.57098
G1 X86.466 Y169.353 E1.57129
G1 X82.539 Y178.83 E1.70155
G1 X82.53 Y178.851 E1.70184
G1 X82.513 Y178.873 E1.70219
G1 X76.268 Y187.013 E1.83246
G1 X76.252 Y187.034 E1.83279
G1 X76.233 Y187.049 E1.8331
G1 X68.093 Y193.293 E1.96336
G1 X68.07 Y193.311 E1.96373
G1 X68.049 Y193.319 E1.96402
G1 X58.572 Y197.246 E2.09427
G1 X58.549 Y197.256 E2.09459
G1 X58.523 Y197.259 E2.09492
G1 X48.351 Y198.597 E2.22519
G1 X48.325 Y198.601 E2.22552
G1 X48.3 Y198.598 E2.22584
G1 X38.129 Y197.26 E2.3561
G1 X38.101 Y197.256 E2.35645
G1 X38.079 Y197.247 E2.35676
G1 X28.601 Y193.32 E2.48702
G1 X28.58 Y193.311 E2.48731
G1 X28.558 Y193.294 E2.48766
G1 X20.419 Y187.05 E2.61791
G1 X20.398 Y187.034 E2.61825
G1 X20.383 Y187.014 E2.61857
G1 X14.138 Y178.874 E2.74883
G1 X14.12 Y178.851 E2.7492
G1 X14.112 Y178.83 E2.74949
G1 X10.185 Y169.353 E2.87974
G1 X10.175 Y169.33 E2.88006
G1 X10.172 Y169.304 E2.88039
G1 X8.834 Y159.133 E3.01065
G1 X8.83 Y159.106 E3.01099
G1 X8.833 Y159.081 E3.01131
G1 X10.171 Y148.91 E3.14157
G1 X10.175 Y148.883 E3.14192
G1 X10.184 Y148.86 E3.14223
G1 X14.111 Y139.383 E3.27248
G1 X14.12 Y139.361 E3.27278
G1 X14.136 Y139.34 E3.27312
G1 X20.381 Y131.201 E3.40338
G1 X20.398 Y131.179 E3.40373
G1 X20.418 Y131.164 E3.40405
G1 X28.556 Y124.92 E3.53429
G1 X28.58 Y124.901 E3.53468
G1 X28.601 Y124.893 E3.53496
G1 X38.079 Y120.965 E3.66523
G1 X38.101 Y120.956 E3.66553
G1 X38.128 Y120.953 E3.66588
G1 X45.765 Y119.948 E3.76368
G1 X122.304 Y43.409 E5.13805
G1 X123.308 Y35.774 E5.23583
G1 X123.312 Y35.746 E5.23618
G1 X123.321 Y35.723 E5.2365
G1 X127.248 Y26.246 E5.36675
G1 X127.257 Y26.224 E5.36705
G1 X127.273 Y26.203 E5.36739
G1 X133.518 Y18.064 E5.49765
G1 X133.535 Y18.042 E5.498
G1 X133.555 Y18.027 E5.49832
G1 X141.693 Y11.783 E5.62856
G1 X141.717 Y11.764 E5.62894
G1 X141.738 Y11.756 E5.62923
G1 X151.215 Y7.829 E5.75948
G1 X151.238 Y7.819 E5.7598
G1 X151.264 Y7.816 E5.76013
G1 X161.437 Y6.478 E5.89041
G1 X161.462 Y6.474 E5.89073
G1 X161.487 Y6.477 E5.89105
G1 X171.659 Y7.815 E6.02132
G1 X171.686 Y7.819 E6.02167
G1 X171.71 Y7.828 E6.02199
G1 X181.186 Y11.755 E6.15223
G1 X181.207 Y11.764 E6.15252
G1 X181.23 Y11.781 E6.15289
G1 X189.368 Y18.026 E6.28313
G1 X189.389 Y18.042 E6.28347
G1 X189.404 Y18.062 E6.28379
G1 X195.649 Y26.201 E6.41404
G1 X195.667 Y26.224 E6.41442
G1 X195.676 Y26.246 E6.41472
G1 X199.602 Y35.723 E6.54496
G1 X199.612 Y35.746 E6.54528
G1 X199.615 Y35.772 E6.54562
G1 X200.953 Y45.943 E6.67587
G1 X200.957 Y45.969 E6.6762
G1 X200.954 Y45.994 E6.67652
G1 X199.616 Y56.166 E6.80679
G1 X199.612 Y56.193 E6.80714
G1 X199.603 Y56.216 E6.80745
G1 X195.676 Y65.693 E6.9377
G1 X195.667 Y65.714 E6.93799
G1 X195.65 Y65.736 E6.93835
G1 X189.405 Y73.876 E7.06862
G1 X189.389 Y73.897 E7.06895
G1 X189.37 Y73.912 E7.06926
G1 X181.23 Y80.156 E7.19952
G1 X181.207 Y80.174 E7.19989
G1 X181.186 Y80.182 E7.20017
G1 X171.709 Y84.109 E7.33043
M204 S625
M205 X6
G0 F3750 X171.633 Y83.924
M204 S500
M205 X5
G1 F1200 X181.109 Y79.999 E7.41681
G1 X189.248 Y73.755 E7.50272
G1 X195.492 Y65.616 E7.58864
G1 X199.417 Y56.14 E7.67513
G1 X200.757 Y45.969 E7.76148
G1 X199.417 Y35.799 E7.84744
G1 X195.492 Y26.323 E7.93403
G1 X189.248 Y18.184 E8.01995
G1 X181.109 Y11.94 E8.10603
G1 X171.633 Y8.015 E8.19317
G1 X161.462 Y6.675 E8.27995
G1 X151.292 Y8.015 E8.36634
G1 X141.815 Y11.94 E8.45317
G1 X133.677 Y18.184 E8.53907
G1 X127.432 Y26.323 E8.62547
G1 X123.507 Y35.799 E8.71196
G1 X122.503 Y43.435 E8.77716
G1 X122.494 Y43.501 E8.77787
G1 X122.446 Y43.549 E8.77873
G1 X45.905 Y120.089 E9.68812
G1 X45.856 Y120.138 E9.689
G1 X45.792 Y120.146 E9.68982
G1 X38.155 Y121.151 E9.7547
G1 X28.678 Y125.077 E9.84131
G1 X20.54 Y131.321 E9.92722
G1 X14.295 Y139.46 E10.01362
G1 X10.37 Y148.936 E10.10011
G1 X9.031 Y159.106 E10.18667
G1 X10.37 Y169.277 E10.27285
G1 X14.295 Y178.753 E10.35923
G1 X20.54 Y186.892 E10.4452
G1 X28.678 Y193.136 E10.53133
G1 X38.155 Y197.061 E10.61788
G1 X48.325 Y198.401 E10.70422
G1 X58.496 Y197.061 E10.79018
G1 X67.972 Y193.136 E10.87656
G1 X76.111 Y186.892 E10.96248
G1 X82.355 Y178.753 E11.0484
G1 X86.28 Y169.277 E11.13489
G1 X87.285 Y161.641 E11.19992
G1 X87.294 Y161.575 E11.20063
G1 X87.342 Y161.527 E11.20149
G1 X163.881 Y84.988 E12.10628
G1 X163.931 Y84.938 E12.10704
G1 X163.995 Y84.93 E12.10786
G1 X171.633 Y83.924 E12.17258
M204 S625
M205 X6
G0 F3750 X171.548 Y83.607
M204 S500
M205 X5
;TYPE:WALL-OUTER
G1 F1200 X180.945 Y79.715 E12.32325
G1 X189.016 Y73.523 E12.47394
G1 X195.208 Y65.452 E12.62463
G1 X199.1 Y56.055 E12.77529
G1 X200.429 Y45.969 E12.92599
G1 X199.1 Y35.884 E13.07668
G1 X195.208 Y26.487 E13.22734
G1 X189.016 Y18.416 E13.37803
G1 X180.945 Y12.224 E13.52872
G1 X171.548 Y8.332 E13.67939
G1 X161.462 Y7.003 E13.83009
G1 X151.377 Y8.332 E13.98077
G1 X141.979 Y12.224 E14.13146
G1 X133.909 Y18.416 E14.28213
G1 X127.716 Y26.487 E14.43283
G1 X123.824 Y35.884 E14.5835
G1 X122.801 Y43.654 E14.69959
G1 X46.009 Y120.445 E16.30831
G1 X38.24 Y121.468 E16.42439
G1 X28.842 Y125.361 E16.57508
G1 X20.772 Y131.553 E16.72576
G1 X14.579 Y139.624 E16.87646
G1 X10.687 Y149.021 E17.02712
G1 X9.359 Y159.106 E17.17781
G1 X10.687 Y169.192 E17.3285
G1 X14.579 Y178.589 E17.47917
G1 X20.772 Y186.66 E17.62987
G1 X28.842 Y192.852 E17.78055
G1 X38.24 Y196.744 E17.93123
G1 X48.325 Y198.073 E18.08191
G1 X58.411 Y196.744 E18.23261
G1 X67.808 Y192.852 E18.38328
G1 X75.879 Y186.66 E18.53397
G1 X82.071 Y178.589 E18.68466
G1 X85.963 Y169.192 E18.83533
G1 X86.987 Y161.422 E18.95142
G1 X163.778 Y84.631 E20.56013
G1 X171.548 Y83.607 E20.67622
M204 S625
M205 X6
G0 F3750 X171.732 Y83.531
G0 X171.893 Y83.924
G0 X171.661 Y84.023
G0 X171.77 Y84.435
M104 S240
M204 S500
M205 X5
G1 F1200 X164.174 Y85.435 E20.78972
G1 X87.791 Y161.819 E22.38989
G1 X86.791 Y169.414 E22.50337
G1 X82.813 Y179.017 E22.65734
G1 X76.484 Y187.266 E22.81136
G1 X68.236 Y193.594 E22.96536
G1 X58.633 Y197.572 E23.11933
G1 X48.325 Y198.929 E23.27334
G1 X38.017 Y197.572 E23.42736
G1 X28.414 Y193.594 E23.58133
G1 X20.166 Y187.266 E23.73533
G1 X13.837 Y179.017 E23.88934
G1 X9.859 Y169.414 E24.04332
G1 X8.502 Y159.106 E24.19733
G1 X9.859 Y148.799 E24.35133
G1 X13.837 Y139.195 E24.50532
G1 X20.166 Y130.947 E24.65932
G1 X28.414 Y124.618 E24.81333
G1 X38.017 Y120.64 E24.9673
G1 X45.613 Y119.64 E25.0808
G1 X121.996 Y43.257 E26.68096
G1 X122.996 Y35.662 E26.79444
G1 X126.974 Y26.058 E26.94843
G1 X133.303 Y17.81 E27.10243
G1 X141.551 Y11.481 E27.25644
G1 X151.154 Y7.503 E27.41041
G1 X161.462 Y6.146 E27.56442
G1 X171.77 Y7.503 E27.71844
G1 X181.373 Y11.481 E27.87241
G1 X189.621 Y17.81 E28.02642
G1 X195.95 Y26.058 E28.18042
G1 X199.928 Y35.662 E28.33441
G1 X201.285 Y45.969 E28.48841
G1 X199.928 Y56.277 E28.64242
G1 X195.95 Y65.88 E28.7964
G1 X189.621 Y74.129 E28.95041
G1 X181.373 Y80.457 E29.10441
G1 X171.77 Y84.435 E29.25839
M204 S625
M205 X6
G0 F3750 X171.572 Y84.461
G0 X171.709 Y84.109
;TIME_ELAPSED:120.048640
;LAYER:1
M140 S60
M106 S85
M204 S2812
M205 X18
G0 F9375 X171.709 Y84.109 Z0.42
M204 S750
M205 X7.5
;TYPE:WALL-INNER
G1 F1650 X171.686 Y84.119 E29.25856
G1 X171.66 Y84.122 E29.25875
G1 X164.022 Y85.127 E29.31309
G1 X87.483 Y161.667 E30.07663
G1 X86.479 Y169.302 E30.13095
G1 X86.475 Y169.33 E30.13115
G1 X86.466 Y169.353 E30.13133
G1 X82.539 Y178.83 E30.20369
G1 X82.53 Y178.851 E30.20385
G1 X82.513 Y178.873 E30.20405
G1 X76.268 Y187.013 E30.27642
G1 X76.252 Y187.034 E30.2766
G1 X76.233 Y187.049 E30.27677
G1 X68.093 Y193.293 E30.34914
G1 X68.07 Y193.311 E30.34935
G1 X68.049 Y193.319 E30.34951
G1 X58.572 Y197.246 E30.42187
G1 X58.549 Y197.256 E30.42204
G1 X58.523 Y197.259 E30.42223
G1 X48.351 Y198.597 E30.4946
G1 X48.325 Y198.601 E30.49479
G1 X48.3 Y198.598 E30.49496
G1 X38.129 Y197.26 E30.56733
G1 X38.101 Y197.256 E30.56753
G1 X38.079 Y197.247 E30.56769
G1 X28.601 Y193.32 E30.64006
G1 X28.58 Y193.311 E30.64022
G1 X28.558 Y193.294 E30.64042
G1 X20.419 Y187.05 E30.71278
G1 X20.398 Y187.034 E30.71297
G1 X20.383 Y187.014 E30.71314
G1 X14.138 Y178.874 E30.78552
G1 X14.12 Y178.851 E30.78572
G1 X14.112 Y178.83 E30.78588
G1 X10.185 Y169.353 E30.85824
G1 X10.175 Y169.33 E30.85842
G1 X10.172 Y169.304 E30.8586
G1 X8.834 Y159.133 E30.93097
G1 X8.83 Y159.106 E30.93116
G1 X8.833 Y159.081 E30.93134
G1 X10.171 Y148.91 E31.0037
G1 X10.175 Y148.883 E31.00389
G1 X10.184 Y148.86 E31.00407
G1 X14.111 Y139.383 E31.07643
G1 X14.12 Y139.361 E31.0766
G1 X14.136 Y139.34 E31.07678
G1 X20.381 Y131.201 E31.14915
G1 X20.398 Y131.179 E31.14935
G1 X20.418 Y131.164 E31.14952
G1 X28.556 Y124.92 E31.22188
G1 X28.58 Y124.901 E31.22209
G1 X28.601 Y124.893 E31.22225
G1 X38.079 Y120.965 E31.29462
G1 X38.101 Y120.956 E31.29479
G1 X38.128 Y120.953 E31.29498
G1 X45.765 Y119.948 E31.34932
G1 X122.304 Y43.409 E32.11286
G1 X123.308 Y35.774 E32.16718
G1 X123.312 Y35.746 E32.16738
G1 X123.321 Y35.723 E32.16755
G1 X127.248 Y26.246 E32.23991
G1 X127.257 Y26.224 E32.24008
G1 X127.273 Y26.203 E32.24027
G1 X133.518 Y18.064 E32.31263
G1 X133.535 Y18.042 E32.31283
G1 X133.555 Y18.027 E32.31301
G1 X141.693 Y11.783 E32.38536
G1 X141.717 Y11.764 E32.38558
G1 X141.738 Y11.756 E32.38574
G1 X151.215 Y7.829 E32.4581
G1 X151.238 Y7.819 E32.45827
G1 X151.264 Y7.816 E32.45846
G1 X161.437 Y6.478 E32.53084
G1 X161.462 Y6.474 E32.53102
G1 X161.487 Y6.477 E32.53119
G1 X171.659 Y7.815 E32.60356
G1 X171.686 Y7.819 E32.60376
G1 X171.71 Y7.828 E32.60394
G1 X181.186 Y11.755 E32.67629
G1 X181.207 Y11.764 E32.67645
G1 X181.23 Y11.781 E32.67666
G1 X189.368 Y18.026 E32.74902
G1 X189.389 Y18.042 E32.7492
G1 X189.404 Y18.062 E32.74938
G1 X195.649 Y26.201 E32.82174
G1 X195.667 Y26.224 E32.82195
G1 X195.676 Y26.246 E32.82212
G1 X199.602 Y35.723 E32.89448
G1 X199.612 Y35.746 E32.89465
G1 X199.615 Y35.772 E32.89484
G1 X200.953 Y45.943 E32.9672
G1 X200.957 Y45.969 E32.96739
G1 X200.954 Y45.994 E32.96757
G1 X199.616 Y56.166 E33.03994
G1 X199.612 Y56.193 E33.04013
G1 X199.603 Y56.216 E33.0403
G1 X195.676 Y65.693 E33.11267
G1 X195.667 Y65.714 E33.11283
G1 X195.65 Y65.736 E33.11302
G1 X189.405 Y73.876 E33.18539
G1 X189.389 Y73.897 E33.18558
G1 X189.37 Y73.912 E33.18575
G1 X181.23 Y80.156 E33.25812
G1 X181.207 Y80.174 E33.25832
G1 X181.186 Y80.182 E33.25848
G1 X171.709 Y84.109 E33.33084
M204 S2812
M205 X18
G0 F9375 X171.633 Y83.924
M204 S750
M205 X7.5
G1 F1650 X181.109 Y79.999 E33.37883
G1 X189.248 Y73.755 E33.42657
G1 X195.492 Y65.616 E33.4743
G1 X199.417 Y56.14 E33.52235
G1 X200.757 Y45.969 E33.57032
G1 X199.417 Y35.799 E33.61807
G1 X195.492 Y26.323 E33.66618
G1 X189.248 Y18.184 E33.71391
G1 X181.109 Y11.94 E33.76173
G1 X171.633 Y8.015 E33.81015
G1 X161.462 Y6.675 E33.85836
G1 X151.292 Y8.015 E33.90635
G1 X141.815 Y11.94 E33.95459
G1 X133.677 Y18.184 E34.00231
G1 X127.432 Y26.323 E34.05032
G1 X123.507 Y35.799 E34.09836
G1 X122.503 Y43.435 E34.13458
G1 X122.494 Y43.501 E34.13498
G1 X122.446 Y43.549 E34.13546
G1 X45.905 Y120.089 E34.64068
G1 X45.856 Y120.138 E34.64117
G1 X45.792 Y120.146 E34.64162
G1 X38.155 Y121.151 E34.67766
G1 X28.678 Y125.077 E34.72578
G1 X20.54 Y131.321 E34.77351
G1 X14.295 Y139.46 E34.82151
G1 X10.37 Y148.936 E34.86956
G1 X9.031 Y159.106 E34.91764
G1 X10.37 Y169.277 E34.96553
G1 X14.295 Y178.753 E35.01352
G1 X20.54 Y186.892 E35.06127
G1 X28.678 Y193.136 E35.10912
G1 X38.155 Y197.061 E35.15721
G1 X48.325 Y198.401 E35.20517
G1 X58.496 Y197.061 E35.25293
G1 X67.972 Y193.136 E35.30092
G1 X76.111 Y186.892 E35.34865
G1 X82.355 Y178.753 E35.39638
G1 X86.28 Y169.277 E35.44443
G1 X87.285 Y161.641 E35.48056
G1 X87.294 Y161.575 E35.48096
G1 X87.342 Y161.527 E35.48144
G1 X163.881 Y84.988 E35.9841
G1 X163.931 Y84.938 E35.98452
G1 X163.995 Y84.93 E35.98497
G1 X171.633 Y83.924 E36.02093
M204 S2812
M205 X18
G0 F9375 X171.548 Y83.607
M204 S500
M205 X5
;TYPE:WALL-OUTER
G1 F1320 X180.945 Y79.715 E36.10463
G1 X189.016 Y73.523 E36.18835
G1 X195.208 Y65.452 E36.27207
G1 X199.1 Y56.055 E36.35577
G1 X200.429 Y45.969 E36.43949
G1 X199.1 Y35.884 E36.52321
G1 X195.208 Y26.487 E36.60691
G1 X189.016 Y18.416 E36.69063
G1 X180.945 Y12.224 E36.77434
G1 X171.548 Y8.332 E36.85805
G1 X161.462 Y7.003 E36.94177
G1 X151.377 Y8.332 E37.02548
G1 X141.979 Y12.224 E37.10919
G1 X133.909 Y18.416 E37.1929
G1 X127.716 Y26.487 E37.27663
G1 X123.824 Y35.884 E37.36033
G1 X122.801 Y43.654 E37.42483
G1 X46.009 Y120.445 E38.31856
G1 X38.24 Y121.468 E38.38305
G1 X28.842 Y125.361 E38.46676
G1 X20.772 Y131.553 E38.55047
G1 X14.579 Y139.624 E38.63419
G1 X10.687 Y149.021 E38.7179
G1 X9.359 Y159.106 E38.80161
G1 X10.687 Y169.192 E38.88533
G1 X14.579 Y178.589 E38.96904
G1 X20.772 Y186.66 E39.05276
G1 X28.842 Y192.852 E39.13647
G1 X38.24 Y196.744 E39.22018
G1 X48.325 Y198.073 E39.30389
G1 X58.411 Y196.744 E39.38761
G1 X67.808 Y192.852 E39.47132
G1 X75.879 Y186.66 E39.55503
G1 X82.071 Y178.589 E39.63875
G1 X85.963 Y169.192 E39.72246
G1 X86.987 Y161.422 E39.78695
G1 X163.778 Y84.631 E40.68068
G1 X171.548 Y83.607 E40.74518
M204 S2812
M205 X18
G0 F9375 X171.732 Y83.531
G0 X171.893 Y83.924
G0 X171.661 Y84.023
G0 X171.77 Y84.435
M204 S500
M205 X5
G1 F1320 X164.174 Y85.435 E40.80823
G1 X87.791 Y161.819 E41.69721
G1 X86.791 Y169.414 E41.76026
G1 X82.813 Y179.017 E41.8458
G1 X76.484 Y187.266 E41.93136
G1 X68.236 Y193.594 E42.01692
G1 X58.633 Y197.572 E42.10246
G1 X48.325 Y198.929 E42.18802
G1 X38.017 Y197.572 E42.27358
G1 X28.414 Y193.594 E42.35912
G1 X20.166 Y187.266 E42.44468
G1 X13.837 Y179.017 E42.53024
G1 X9.859 Y169.414 E42.61579
G1 X8.502 Y159.106 E42.70135
G1 X9.859 Y148.799 E42.7869
G1 X13.837 Y139.195 E42.87245
G1 X20.166 Y130.947 E42.95801
G1 X28.414 Y124.618 E43.04357
G1 X38.017 Y120.64 E43.12911
G1 X45.613 Y119.64 E43.19216
G1 X121.996 Y43.257 E44.08114
G1 X122.996 Y35.662 E44.14418
G1 X126.974 Y26.058 E44.22973
G1 X133.303 Y17.81 E44.31529
G1 X141.551 Y11.481 E44.40085
G1 X151.154 Y7.503 E44.48639
G1 X161.462 Y6.146 E44.57195
G1 X171.77 Y7.503 E44.65752
G1 X181.373 Y11.481 E44.74306
G1 X189.621 Y17.81 E44.82862
G1 X195.95 Y26.058 E44.91418
G1 X199.928 Y35.662 E44.99972
G1 X201.285 Y45.969 E45.08528
G1 X199.928 Y56.277 E45.17084
G1 X195.95 Y65.88 E45.25638
G1 X189.621 Y74.129 E45.34195
G1 X181.373 Y80.457 E45.4275
G1 X171.77 Y84.435 E45.51304
M204 S2812
M205 X18
G0 F9375 X171.572 Y84.461
G0 X171.709 Y84.109
;TIME_ELAPSED:214.984640
;LAYER:2
M106 S170
M204 S5000
M205 X30
G0 F15000 X171.709 Y84.109 Z0.57
M204 S1000
M205 X10
;TYPE:WALL-INNER
G1 F2100 X171.686 Y84.119 E45.51322
G1 X171.66 Y84.122 E45.51341
G1 X164.022 Y85.127 E45.56775
G1 X87.483 Y161.667 E46.33129
G1 X86.479 Y169.302 E46.38561
G1 X86.475 Y169.33 E46.38581
G1 X86.466 Y169.353 E46.38599
G1 X82.539 Y178.83 E46.45835
G1 X82.53 Y178.851 E46.45851
G1 X82.513 Y178.873 E46.45871
G1 X76.268 Y187.013 E46.53108
G1 X76.252 Y187.034 E46.53126
G1 X76.233 Y187.049 E46.53143
G1 X68.093 Y193.293 E46.6038
G1 X68.07 Y193.311 E46.60401
G1 X68.049 Y193.319 E46.60416
G1 X58.572 Y197.246 E46.67653
G1 X58.549 Y197.256 E46.6767
G1 X58.523 Y197.259 E46.67689
G1 X48.351 Y198.597 E46.74926
G1 X48.325 Y198.601 E46.74944
G1 X48.3 Y198.598 E46.74962
G1 X38.129 Y197.26 E46.82199
G1 X38.101 Y197.256 E46.82219
G1 X38.079 Y197.247 E46.82235
G1 X28.601 Y193.32 E46.89472
G1 X28.58 Y193.311 E46.89488
G1 X28.558 Y193.294 E46.89508
