;START_OF_HEADER
;HEADER_VERSION:0.1
;FLAVOR:Griffin
;GENERATOR.NAME:Cura_SteamEngine
;GENERATOR.VERSION:2.6.2
;GENERATOR.BUILD_DATE:2017-07-06
;TARGET_MACHINE.NAME:Ultimaker 3
;EXTRUDER_TRAIN.0.INITIAL_TEMPERATURE:245
;EXTRUDER_TRAIN.0.MATERIAL.VOLUME_USED:15480
;EXTRUDER_TRAIN.0.MATERIAL.GUID:506c9f0d-e3aa-4bd4-b2d2-23e2425b1aa9
;EXTRUDER_TRAIN.0.NOZZLE.DIAMETER:0.4
;BUILD_PLATE.INITIAL_TEMPERATURE:60
;PRINT.TIME:9074
;PRINT.SIZE.MIN.X:9
;PRINT.SIZE.MIN.Y:6
;PRINT.SIZE.MIN.Z:0.27
;PRINT.SIZE.MAX.X:206.794
;PRINT.SIZE.MAX.Y:205.829
;PRINT.SIZE.MAX.Z:2
;END_OF_HEADER
;Generated with Cura_SteamEngine 2.6.2

T0
G92 E0

M109 S245
G0 F15000 X9 Y6 Z2
G280
G1 F1500 E-6.5
;LAYER_COUNT:6
;LAYER:0
M107
M204 S625
M205 X6
G0 F3750 X177.114 Y90.727 Z0.27
M204 S500
M205 X5
;TYPE:WALL-INNER
G1 F1500 E0
G1 F1200 X169.391 Y91.743 E0.0989
G1 X92.708 Y168.426 E1.47586
G1 X91.692 Y176.15 E1.57478
G1 X87.777 Y185.599 E1.70464
G1 X81.547 Y193.719 E1.83459
G1 X73.427 Y199.949 E1.96454
G1 X63.977 Y203.864 E2.09442
G1 X53.834 Y205.199 E2.22432
G1 X43.69 Y203.864 E2.35423
G1 X34.241 Y199.949 E2.48409
G1 X26.12 Y193.719 E2.61405
G1 X19.891 Y185.599 E2.744
G1 X15.976 Y176.15 E2.87386
G1 X14.641 Y166.006 E3.00377
G1 X15.976 Y155.862 E3.13368
G1 X19.891 Y146.413 E3.26355
G1 X26.12 Y138.293 E3.39349
G1 X34.241 Y132.063 E3.52345
G1 X43.69 Y128.148 E3.65332
G1 X51.413 Y127.132 E3.75222
G1 X128.097 Y50.448 E5.12919
G1 X129.113 Y42.725 E5.2281
G1 X133.028 Y33.276 E5.35796
G1 X139.257 Y25.156 E5.4879
G1 X147.378 Y18.926 E5.61787
G1 X156.827 Y15.011 E5.74773
G1 X166.971 Y13.676 E5.87764
G1 X177.114 Y15.011 E6.00754
G1 X186.564 Y18.926 E6.13742
G1 X194.684 Y25.156 E6.26737
G1 X200.914 Y33.276 E6.39732
G1 X204.829 Y42.725 E6.52718
G1 X206.164 Y52.869 E6.65709
G1 X204.829 Y63.013 E6.787
G1 X200.914 Y72.462 E6.91687
G1 X194.684 Y80.582 E7.04682
G1 X186.564 Y86.812 E7.17677
G1 X177.114 Y90.727 E7.30665
M204 S625
M205 X6
G0 F3750 X177.194 Y91.019
M204 S500
M205 X5
G1 F1200 X169.531 Y92.027 E7.40478
G1 X92.992 Y168.566 E8.77915
G1 X91.984 Y176.23 E8.8773
G1 X88.039 Y185.751 E9.00815
G1 X81.761 Y193.933 E9.1391
G1 X73.579 Y200.211 E9.27005
G1 X64.057 Y204.156 E9.40091
G1 X53.834 Y205.501 E9.53183
G1 X43.61 Y204.156 E9.66277
G1 X34.089 Y200.211 E9.79362
G1 X25.906 Y193.933 E9.92458
G1 X19.629 Y185.751 E10.05552
G1 X15.684 Y176.23 E10.18637
G1 X14.339 Y166.006 E10.31731
G1 X15.684 Y155.782 E10.44824
G1 X19.629 Y146.261 E10.5791
G1 X25.906 Y138.079 E10.71004
G1 X34.089 Y131.801 E10.84099
G1 X43.61 Y127.856 E10.97185
G1 X51.273 Y126.848 E11.06998
G1 X127.813 Y50.308 E12.44437
G1 X128.821 Y42.645 E12.54251
G1 X132.766 Y33.124 E12.67336
G1 X139.043 Y24.942 E12.8043
G1 X147.226 Y18.664 E12.93526
G1 X156.747 Y14.719 E13.06611
G1 X166.971 Y13.374 E13.19705
G1 X177.194 Y14.719 E13.32797
G1 X186.716 Y18.664 E13.45883
G1 X194.898 Y24.942 E13.58978
G1 X201.176 Y33.124 E13.72073
G1 X205.121 Y42.645 E13.85158
G1 X206.466 Y52.869 E13.98252
G1 X205.121 Y63.093 E14.11345
G1 X201.176 Y72.614 E14.24431
G1 X194.898 Y80.796 E14.37525
G1 X186.716 Y87.074 E14.5062
G1 X177.194 Y91.019 E14.63706
M204 S625
M205 X6
G0 F3750 X177.278 Y91.335
M204 S500
M205 X5
;TYPE:WALL-OUTER
G1 F1200 X169.683 Y92.335 E14.75054
G1 X93.3 Y168.718 E16.3507
G1 X92.3 Y176.314 E16.4642
G1 X88.322 Y185.917 E16.61817
G1 X81.993 Y194.165 E16.77218
G1 X73.745 Y200.494 E16.92618
G1 X64.141 Y204.472 E17.08017
G1 X53.834 Y205.829 E17.23417
G1 X43.526 Y204.472 E17.38818
G1 X33.923 Y200.494 E17.54216
G1 X25.674 Y194.165 E17.69617
G1 X19.346 Y185.917 E17.85017
G1 X15.368 Y176.314 E18.00415
G1 X14.011 Y166.006 E18.15816
G1 X15.368 Y155.698 E18.31217
G1 X19.346 Y146.095 E18.46615
G1 X25.674 Y137.847 E18.62014
G1 X33.923 Y131.518 E18.77416
G1 X43.526 Y127.54 E18.92813
G1 X51.121 Y126.54 E19.04161
G1 X127.505 Y50.156 E20.6418
G1 X128.505 Y42.561 E20.75527
G1 X132.483 Y32.958 E20.90925
G1 X138.811 Y24.71 E21.06324
G1 X147.06 Y18.381 E21.21726
G1 X156.663 Y14.403 E21.37124
G1 X166.971 Y13.046 E21.52525
G1 X177.278 Y14.403 E21.67925
G1 X186.882 Y18.381 E21.83324
G1 X195.13 Y24.71 E21.98724
G1 X201.459 Y32.958 E22.14125
G1 X205.437 Y42.561 E22.29522
G1 X206.794 Y52.869 E22.44923
G1 X205.437 Y63.177 E22.60325
G1 X201.459 Y72.78 E22.75722
G1 X195.13 Y81.028 E22.91123
G1 X186.882 Y87.357 E23.06523
G1 X177.278 Y91.335 E23.21922
M204 S625
M205 X6
G0 F3750 X177.08 Y91.361
G0 X177.026 Y90.94
G0 X176.779 Y90.653
M204 S500
M205 X5
;TYPE:SKIN
G1 F1200 X129.184 Y43.059 E24.21629
M204 S625
M205 X6
G0 F3750 X129.269 Y42.648
M204 S500
M205 X5
G1 F1200 X177.19 Y90.569 E25.22019
M204 S625
M205 X6
G0 F3750 X177.54 Y90.424
M204 S500
M205 X5
G1 F1200 X129.413 Y42.298 E26.22841
M204 S625
M205 X6
G0 F3750 X129.558 Y41.948
M204 S500
M205 X5
G1 F1200 X177.89 Y90.279 E27.24091
M204 S625
M205 X6
G0 F3750 X178.24 Y90.134
M204 S500
M205 X5
G1 F1200 X129.703 Y41.598 E28.25771
M204 S625
M205 X6
G0 F3750 X129.848 Y41.248
M204 S500
M205 X5
G1 F1200 X178.59 Y89.989 E29.27881
M204 S625
M205 X6
G0 F3750 X178.94 Y89.844
M204 S500
M205 X5
G1 F1200 X129.993 Y40.898 E30.3042
M204 S625
M205 X6
G0 F3750 X130.138 Y40.548
M204 S500
M205 X5
G1 F1200 X179.29 Y89.7 E31.33389
M204 S625
M205 X6
G0 F3750 X179.64 Y89.555
M204 S500
M205 X5
G1 F1200 X130.283 Y40.198 E32.36788
M204 S625
M205 X6
G0 F3750 X130.428 Y39.848
M204 S500
M205 X5
G1 F1200 X179.99 Y89.41 E33.40616
M204 S625
M205 X6
G0 F3750 X180.34 Y89.265
M204 S500
M205 X5
G1 F1200 X130.573 Y39.498 E34.44874
M204 S625
M205 X6
G0 F3750 X130.718 Y39.148
M204 S500
M205 X5
G1 F1200 X180.69 Y89.12 E35.49561
M204 S625
M205 X6
G0 F3750 X181.04 Y88.975
M204 S500
M205 X5
G1 F1200 X130.863 Y38.798 E36.54678
M204 S625
M205 X6
G0 F3750 X131.008 Y38.448
M204 S500
M205 X5
G1 F1200 X181.39 Y88.83 E37.60224
M204 S625
M205 X6
G0 F3750 X181.74 Y88.685
M204 S500
M205 X5
G1 F1200 X131.153 Y38.098 E38.662
M204 S625
M205 X6
G0 F3750 X131.298 Y37.748
M204 S500
M205 X5
G1 F1200 X182.09 Y88.54 E39.72605
M204 S625
M205 X6
G0 F3750 X182.44 Y88.395
M204 S500
M205 X5
G1 F1200 X131.443 Y37.398 E40.7944
M204 S625
M205 X6
G0 F3750 X131.588 Y37.048
M204 S500
M205 X5
G1 F1200 X182.79 Y88.25 E41.86704
M204 S625
M205 X6
G0 F3750 X183.14 Y88.105
M204 S500
M205 X5
G1 F1200 X131.733 Y36.698 E42.94397
M204 S625
M205 X6
G0 F3750 X131.878 Y36.348
M204 S500
M205 X5
G1 F1200 X183.49 Y87.96 E44.0252
M204 S625
M205 X6
G0 F3750 X183.84 Y87.815
M204 S500
M205 X5
G1 F1200 X132.023 Y35.998 E45.11073
M204 S625
M205 X6
G0 F3750 X132.168 Y35.648
M204 S500
M205 X5
G1 F1200 X184.19 Y87.67 E46.20054
M204 S625
M205 X6
G0 F3750 X184.54 Y87.525
M204 S500
M205 X5
G1 F1200 X132.313 Y35.298 E47.29466
M204 S625
M205 X6
G0 F3750 X132.458 Y34.948
M204 S500
M205 X5
G1 F1200 X184.89 Y87.38 E48.39307
M204 S625
M205 X6
G0 F3750 X185.24 Y87.235
M204 S500
M205 X5
G1 F1200 X132.603 Y34.598 E49.49577
M204 S625
M205 X6
G0 F3750 X132.747 Y34.248
M204 S500
M205 X5
G1 F1200 X185.59 Y87.09 E50.60278
M204 S625
M205 X6
G0 F3750 X185.94 Y86.945
M204 S500
M205 X5
G1 F1200 X132.892 Y33.897 E51.71409
M204 S625
M205 X6
G0 F3750 X133.037 Y33.547
M204 S500
M205 X5
G1 F1200 X186.29 Y86.8 E52.8297
M204 S625
M205 X6
G0 F3750 X186.613 Y86.629
M204 S500
M205 X5
G1 F1200 X133.209 Y33.224 E53.94848
M204 S625
M205 X6
G0 F3750 X133.424 Y32.944
M204 S500
M205 X5
G1 F1200 X186.893 Y86.414 E55.06862
M204 S625
M205 X6
G0 F3750 X187.173 Y86.199
M204 S500
M205 X5
G1 F1200 X133.639 Y32.664 E56.19012
M204 S625
M205 X6
G0 F3750 X133.854 Y32.384
M204 S500
M205 X5
G1 F1200 X187.454 Y85.984 E57.313
M204 S625
M205 X6
G0 F3750 X187.734 Y85.769
M204 S500
M205 X5
G1 F1200 X134.069 Y32.104 E58.43724
M204 S625
M205 X6
G0 F3750 X134.284 Y31.824
M204 S500
M205 X5
G1 F1200 X188.014 Y85.554 E59.56284
M204 S625
M205 X6
G0 F3750 X188.294 Y85.339
M204 S500
M205 X5
G1 F1200 X134.498 Y31.544 E60.68981
M204 S625
M205 X6
G0 F3750 X134.713 Y31.264
M204 S500
M205 X5
G1 F1200 X188.574 Y85.124 E61.81814
M204 S625
M205 X6
G0 F3750 X188.854 Y84.909
M204 S500
M205 X5
G1 F1200 X134.928 Y30.984 E62.94784
M204 S625
M205 X6
G0 F3750 X135.143 Y30.703
M204 S500
M205 X5
G1 F1200 X189.134 Y84.694 E64.07891
M204 S625
M205 X6
G0 F3750 X189.414 Y84.48
M204 S500
M205 X5
G1 F1200 X135.358 Y30.423 E65.21135
M204 S625
M205 X6
G0 F3750 X135.573 Y30.143
M204 S500
M205 X5
G1 F1200 X189.694 Y84.265 E66.34515
M204 S625
M205 X6
G0 F3750 X189.974 Y84.05
M204 S500
M205 X5
G1 F1200 X135.788 Y29.863 E67.48031
M204 S625
M205 X6
G0 F3750 X136.003 Y29.583
M204 S500
M205 X5
G1 F1200 X190.254 Y83.835 E68.61684
M204 S625
M205 X6
G0 F3750 X190.534 Y83.62
M204 S500
M205 X5
G1 F1200 X136.218 Y29.303 E69.75472
M204 S625
M205 X6
G0 F3750 X136.433 Y29.023
M204 S500
M205 X5
G1 F1200 X190.814 Y83.405 E70.89397
M204 S625
M205 X6
G0 F3750 X191.094 Y83.19
M204 S500
M205 X5
G1 F1200 X136.647 Y28.743 E72.03459
M204 S625
M205 X6
G0 F3750 X136.862 Y28.463
M204 S500
M205 X5
G1 F1200 X191.374 Y82.975 E73.17657
M204 S625
M205 X6
G0 F3750 X191.654 Y82.76
M204 S500
M205 X5
G1 F1200 X137.077 Y28.183 E74.31992
M204 S625
M205 X6
G0 F3750 X137.292 Y27.903
M204 S500
M205 X5
G1 F1200 X191.934 Y82.545 E75.46462
M204 S625
M205 X6
G0 F3750 X192.214 Y82.33
M204 S500
M205 X5
G1 F1200 X137.507 Y27.623 E76.61069
M204 S625
M205 X6
G0 F3750 X137.722 Y27.343
M204 S500
M205 X5
G1 F1200 X192.494 Y82.115 E77.75812
M204 S625
M205 X6
G0 F3750 X192.774 Y81.9
M204 S500
M205 X5
G1 F1200 X137.937 Y27.063 E78.90691
M204 S625
M205 X6
G0 F3750 X138.152 Y26.783
M204 S500
M205 X5
G1 F1200 X193.055 Y81.685 E80.05707
M204 S625
M205 X6
G0 F3750 X193.335 Y81.47
M204 S500
M205 X5
G1 F1200 X138.367 Y26.503 E81.2086
M204 S625
M205 X6
G0 F3750 X138.582 Y26.223
M204 S500
M205 X5
G1 F1200 X193.615 Y81.255 E82.36148
M204 S625
M205 X6
G0 F3750 X193.895 Y81.04
M204 S500
M205 X5
G1 F1200 X138.797 Y25.943 E83.51573
M204 S625
M205 X6
G0 F3750 X139.011 Y25.662
M204 S500
M205 X5
G1 F1200 X194.175 Y80.825 E84.67136
M204 S625
M205 X6
G0 F3750 X194.455 Y80.611
M204 S500
M205 X5
G1 F1200 X139.226 Y25.382 E85.82836
M204 S625
M205 X6
G0 F3750 X139.473 Y25.134
M204 S500
M205 X5
G1 F1200 X194.704 Y80.365 E86.98541
M204 S625
M205 X6
G0 F3750 X194.919 Y80.085
M204 S500
M205 X5
G1 F1200 X139.753 Y24.919 E88.14109
M204 S625
M205 X6
G0 F3750 X140.034 Y24.704
M204 S500
M205 X5
G1 F1200 X195.134 Y79.805 E89.2954
M204 S625
M205 X6
G0 F3750 X195.349 Y79.525
M204 S500
M205 X5
G1 F1200 X140.314 Y24.489 E90.44835
M204 S625
M205 X6
G0 F3750 X140.594 Y24.274
M204 S500
M205 X5
G1 F1200 X195.564 Y79.245 E91.59994
M204 S625
M205 X6
G0 F3750 X195.779 Y78.965
M204 S500
M205 X5
G1 F1200 X140.874 Y24.06 E92.75015
M204 S625
M205 X6
G0 F3750 X141.154 Y23.845
M204 S500
M205 X5
G1 F1200 X195.994 Y78.685 E93.89901
M204 S625
M205 X6
G0 F3750 X196.209 Y78.405
M204 S500
M205 X5
G1 F1200 X141.434 Y23.63 E95.0465
M204 S625
M205 X6
G0 F3750 X141.714 Y23.415
M204 S500
M205 X5
G1 F1200 X196.424 Y78.125 E96.19263
M204 S625
M205 X6
G0 F3750 X196.639 Y77.845
M204 S500
M205 X5
G1 F1200 X141.994 Y23.2 E97.3374
M204 S625
M205 X6
G0 F3750 X142.274 Y22.985
M204 S500
M205 X5
G1 F1200 X196.854 Y77.565 E98.48081
M204 S625
M205 X6
G0 F3750 X197.069 Y77.285
M204 S500
M205 X5
G1 F1200 X142.554 Y22.77 E99.62285
M204 S625
M205 X6
G0 F3750 X142.834 Y22.555
M204 S500
M205 X5
G1 F1200 X197.284 Y77.005 E100.76353
M204 S625
M205 X6
G0 F3750 X197.499 Y76.725
M204 S500
M205 X5
G1 F1200 X143.114 Y22.341 E101.90284
M204 S625
M205 X6
G0 F3750 X143.394 Y22.126
M204 S500
M205 X5
G1 F1200 X197.714 Y76.445 E103.04079
M204 S625
M205 X6
G0 F3750 X197.929 Y76.165
M204 S500
M205 X5
G1 F1200 X143.674 Y21.911 E104.17738
M204 S625
M205 X6
G0 F3750 X143.954 Y21.696
M204 S500
M205 X5
G1 F1200 X198.144 Y75.885 E105.31261
M204 S625
M205 X6
G0 F3750 X198.358 Y75.604
M204 S500
M205 X5
G1 F1200 X144.234 Y21.481 E106.44645
M204 S625
M205 X6
G0 F3750 X144.514 Y21.266
M204 S500
M205 X5
G1 F1200 X198.573 Y75.324 E107.57893
M204 S625
M205 X6
G0 F3750 X198.788 Y75.044
M204 S500
M205 X5
G1 F1200 X144.794 Y21.051 E108.71005
M204 S625
M205 X6
G0 F3750 X145.074 Y20.836
M204 S500
M205 X5
G1 F1200 X199.003 Y74.764 E109.83981
M204 S625
M205 X6
G0 F3750 X199.218 Y74.484
M204 S500
M205 X5
G1 F1200 X145.355 Y20.622 E110.96819
M204 S625
M205 X6
G0 F3750 X145.635 Y20.407
M204 S500
M205 X5
G1 F1200 X199.433 Y74.204 E112.0952
M204 S625
M205 X6
G0 F3750 X199.648 Y73.924
M204 S500
M205 X5
G1 F1200 X145.915 Y20.192 E113.22085
M204 S625
M205 X6
G0 F3750 X146.195 Y19.977
M204 S500
M205 X5
G1 F1200 X199.863 Y73.644 E114.34514
M204 S625
M205 X6
G0 F3750 X200.077 Y73.364
M204 S500
M205 X5
G1 F1200 X146.475 Y19.762 E115.46806
M204 S625
M205 X6
G0 F3750 X146.755 Y19.547
M204 S500
M205 X5
G1 F1200 X200.292 Y73.084 E116.58962
M204 S625
M205 X6
G0 F3750 X200.507 Y72.804
M204 S500
M205 X5
G1 F1200 X147.035 Y19.332 E117.70981
M204 S625
M205 X6
G0 F3750 X147.315 Y19.117
M204 S500
M205 X5
G1 F1200 X200.722 Y72.524 E118.82865
M204 S625
M205 X6
G0 F3750 X200.896 Y72.203
M204 S500
M205 X5
G1 F1200 X147.636 Y18.943 E119.9444
M204 S625
M205 X6
G0 F3750 X147.986 Y18.798
M204 S500
M205 X5
G1 F1200 X201.041 Y71.853 E121.05586
M204 S625
M205 X6
G0 F3750 X201.186 Y71.503
M204 S500
M205 X5
G1 F1200 X148.336 Y18.653 E122.16302
M204 S625
M205 X6
G0 F3750 X148.686 Y18.507
M204 S500
M205 X5
G1 F1200 X201.331 Y71.153 E123.26591
M204 S625
M205 X6
G0 F3750 X201.476 Y70.803
M204 S500
M205 X5
G1 F1200 X149.036 Y18.362 E124.36449
M204 S625
M205 X6
G0 F3750 X149.386 Y18.217
M204 S500
M205 X5
G1 F1200 X201.621 Y70.453 E125.45878
M204 S625
M205 X6
G0 F3750 X201.766 Y70.103
M204 S500
M205 X5
G1 F1200 X149.736 Y18.072 E126.54878
M204 S625
M205 X6
G0 F3750 X150.086 Y17.927
M204 S500
M205 X5
G1 F1200 X201.911 Y69.753 E127.63448
M204 S625
M205 X6
G0 F3750 X202.056 Y69.403
M204 S500
M205 X5
G1 F1200 X150.436 Y17.783 E128.71588
M204 S625
M205 X6
G0 F3750 X150.786 Y17.638
M204 S500
M205 X5
G1 F1200 X202.201 Y69.053 E129.79298
M204 S625
M205 X6
G0 F3750 X202.346 Y68.703
M204 S500
M205 X5
G1 F1200 X151.136 Y17.493 E130.86579
M204 S625
M205 X6
G0 F3750 X151.486 Y17.348
M204 S500
M205 X5
G1 F1200 X202.491 Y68.353 E131.9343
M204 S625
M205 X6
G0 F3750 X202.636 Y68.003
M204 S500
M205 X5
G1 F1200 X151.836 Y17.203 E132.99852
M204 S625
M205 X6
G0 F3750 X152.186 Y17.058
M204 S500
M205 X5
G1 F1200 X202.781 Y67.653 E134.05845
M204 S625
M205 X6
G0 F3750 X202.926 Y67.303
M204 S500
M205 X5
G1 F1200 X152.536 Y16.913 E135.11407
M204 S625
M205 X6
G0 F3750 X152.886 Y16.768
M204 S500
M205 X5
G1 F1200 X203.071 Y66.953 E136.16541
M204 S625
M205 X6
G0 F3750 X203.216 Y66.603
M204 S500
M205 X5
G1 F1200 X153.236 Y16.623 E137.21245
M204 S625
M205 X6
G0 F3750 X153.586 Y16.478
M204 S500
M205 X5
G1 F1200 X203.361 Y66.253 E138.2552
M204 S625
M205 X6
G0 F3750 X203.506 Y65.903
M204 S500
M205 X5
G1 F1200 X153.936 Y16.333 E139.29365
M204 S625
M205 X6
G0 F3750 X154.286 Y16.188
M204 S500
M205 X5
G1 F1200 X203.65 Y65.553 E140.32779
M204 S625
M205 X6
G0 F3750 X203.795 Y65.203
M204 S500
M205 X5
G1 F1200 X154.636 Y16.043 E141.35765
M204 S625
M205 X6
G0 F3750 X154.986 Y15.898
M204 S500
M205 X5
G1 F1200 X203.94 Y64.853 E142.3832
M204 S625
M205 X6
G0 F3750 X204.085 Y64.502
M204 S500
M205 X5
G1 F1200 X155.336 Y15.753 E143.40445
M204 S625
M205 X6
G0 F3750 X155.686 Y15.608
M204 S500
M205 X5
G1 F1200 X204.23 Y64.152 E144.42141
M204 S625
M205 X6
G0 F3750 X204.375 Y63.802
M204 S500
M205 X5
G1 F1200 X156.036 Y15.463 E145.43407
M204 S625
M205 X6
G0 F3750 X156.386 Y15.318
M204 S500
M205 X5
G1 F1200 X204.52 Y63.452 E146.44244
M204 S625
M205 X6
G0 F3750 X204.665 Y63.102
M204 S500
M205 X5
G1 F1200 X156.736 Y15.173 E147.44652
M204 S625
M205 X6
G0 F3750 X157.143 Y15.086
M204 S500
M205 X5
G1 F1200 X204.753 Y62.695 E148.4439
M204 S625
M205 X6
G0 F3750 X204.81 Y62.257
M204 S500
M205 X5
G1 F1200 X157.581 Y15.028 E149.43331
M204 S625
M205 X6
G0 F3750 X158.018 Y14.97
M204 S500
M205 X5
G1 F1200 X204.868 Y61.82 E150.41478
M204 S625
M205 X6
G0 F3750 X204.925 Y61.383
M204 S500
M205 X5
G1 F1200 X158.456 Y14.913 E151.38827
M204 S625
M205 X6
G0 F3750 X158.893 Y14.855
M204 S500
M205 X5
G1 F1200 X204.983 Y60.946 E152.35383
M204 S625
M205 X6
G0 F3750 X205.041 Y60.508
M204 S500
M205 X5
G1 F1200 X159.33 Y14.798 E153.31143
M204 S625
M205 X6
