;START_OF_HEADER
;HEADER_VERSION:0.1
;FLAVOR:Griffin
;GENERATOR.NAME:Cura_SteamEngine
;GENERATOR.VERSION:2.7.0
;GENERATOR.BUILD_DATE:2017-08-30
;TARGET_MACHINE.NAME:Ultimaker 3
;EXTRUDER_TRAIN.0.INITIAL_TEMPERATURE:205
;EXTRUDER_TRAIN.0.MATERIAL.VOLUME_USED:31425
;EXTRUDER_TRAIN.0.MATERIAL.GUID:506c9f0d-e3aa-4bd4-b2d2-23e2425b1aa9
;EXTRUDER_TRAIN.0.NOZZLE.DIAMETER:0.4
;EXTRUDER_TRAIN.0.NOZZLE.NAME:AA 0.4
;BUILD_PLATE.INITIAL_TEMPERATURE:60
;PRINT.TIME:7601
;PRINT.SIZE.MIN.X:9
;PRINT.SIZE.MIN.Y:6
;PRINT.SIZE.MIN.Z:0.27
;PRINT.SIZE.MAX.X:185.773
;PRINT.SIZE.MAX.Y:207.015
;PRINT.SIZE.MAX.Z:2.02
;END_OF_HEADER
;Generated with Cura_SteamEngine 2.7.0

T0
G92 E0

M109 S205
G0 F15000 X9 Y6 Z2
G280
G1 F1500 E-6.5
;LAYER_COUNT:60
;LAYER:0
M107
M204 S625
M205 X6 Y6
G0 F3750 X137.641 Y169.524 Z0.27
M204 S500
M205 X5 Y5
;TYPE:WALL-INNER
G1 F1500 E0
G1 F1200 X132.877 Y181.025 E0.15806
G1 X125.298 Y190.906 E0.31618
G1 X115.417 Y198.485 E0.47429
G1 X103.916 Y203.249 E0.63236
G1 X91.584 Y204.875 E0.79029
G1 X79.252 Y203.249 E0.94823
G1 X67.751 Y198.485 E1.10629
G1 X57.87 Y190.906 E1.26441
G1 X50.291 Y181.025 E1.42252
G1 X45.527 Y169.524 E1.58059
G1 X43.901 Y157.192 E1.73852
G1 X45.527 Y144.86 E1.89646
G1 X50.291 Y133.359 E2.05452
G1 X57.87 Y123.478 E2.21264
G1 X67.751 Y115.899 E2.37075
G1 X79.252 Y111.135 E2.52881
G1 X91.584 Y109.509 E2.68675
G1 X103.916 Y111.135 E2.84469
G1 X115.417 Y115.899 E3.00275
G1 X125.298 Y123.478 E3.16087
G1 X132.877 Y133.359 E3.31898
G1 X137.641 Y144.86 E3.47704
G1 X139.267 Y157.192 E3.63498
G1 X137.641 Y169.524 E3.79292
M204 S625
M205 X6 Y6
G0 F3750 X137.933 Y169.604
M204 S500
M205 X5 Y5
G1 F1200 X133.139 Y181.177 E3.95197
G1 X125.512 Y191.12 E4.11108
G1 X115.569 Y198.747 E4.27019
G1 X103.996 Y203.541 E4.42924
G1 X91.584 Y205.177 E4.5882
G1 X79.172 Y203.541 E4.74716
G1 X67.599 Y198.747 E4.90622
G1 X57.656 Y191.12 E5.06533
G1 X50.029 Y181.177 E5.22444
G1 X45.235 Y169.604 E5.38349
G1 X43.599 Y157.192 E5.54245
G1 X45.235 Y144.78 E5.70141
G1 X50.029 Y133.207 E5.86047
G1 X57.656 Y123.264 E6.01958
G1 X67.599 Y115.637 E6.17869
G1 X79.172 Y110.843 E6.33774
G1 X91.584 Y109.207 E6.4967
G1 X103.996 Y110.843 E6.65566
G1 X115.569 Y115.637 E6.81471
G1 X125.512 Y123.264 E6.97383
G1 X133.139 Y133.207 E7.13294
G1 X137.933 Y144.78 E7.29199
G1 X139.569 Y157.192 E7.45095
G1 X137.933 Y169.604 E7.60991
M204 S625
M205 X6 Y6
G0 F3750 X138.225 Y169.684
M204 S500
M205 X5 Y5
G1 F1200 X133.401 Y181.329 E7.76995
G1 X125.726 Y191.334 E7.93006
G1 X115.721 Y199.009 E8.09017
G1 X104.076 Y203.833 E8.25021
G1 X91.584 Y205.479 E8.41019
G1 X79.092 Y203.833 E8.57018
G1 X67.447 Y199.009 E8.73022
G1 X57.442 Y191.334 E8.89033
G1 X49.767 Y181.329 E9.05043
G1 X44.943 Y169.684 E9.21048
G1 X43.297 Y157.192 E9.37046
G1 X44.943 Y144.7 E9.53044
G1 X49.767 Y133.055 E9.69049
G1 X57.442 Y123.05 E9.85059
G1 X67.447 Y115.375 E10.0107
G1 X79.092 Y110.551 E10.17074
G1 X91.584 Y108.905 E10.33073
G1 X104.076 Y110.551 E10.49071
G1 X115.721 Y115.375 E10.65075
G1 X125.726 Y123.05 E10.81086
G1 X133.401 Y133.055 E10.97097
G1 X138.225 Y144.7 E11.13101
G1 X139.871 Y157.192 E11.291
G1 X138.225 Y169.684 E11.45098
M204 S625
M205 X6 Y6
G0 F3750 X138.517 Y169.764
M204 S500
M205 X5 Y5
G1 F1200 X133.663 Y181.481 E11.61201
G1 X125.94 Y191.548 E11.77311
G1 X115.873 Y199.271 E11.93422
G1 X104.156 Y204.125 E12.09525
G1 X91.584 Y205.781 E12.25626
G1 X79.012 Y204.125 E12.41727
G1 X67.295 Y199.271 E12.5783
G1 X57.228 Y191.548 E12.7394
G1 X49.505 Y181.481 E12.9005
G1 X44.651 Y169.764 E13.06154
G1 X42.995 Y157.192 E13.22254
G1 X44.651 Y144.62 E13.38355
G1 X49.505 Y132.903 E13.54459
G1 X57.228 Y122.836 E13.70569
G1 X67.295 Y115.113 E13.86679
G1 X79.012 Y110.259 E14.02782
G1 X91.584 Y108.603 E14.18883
G1 X104.156 Y110.259 E14.34984
G1 X115.873 Y115.113 E14.51087
G1 X125.94 Y122.836 E14.67197
G1 X133.663 Y132.903 E14.83308
G1 X138.517 Y144.62 E14.99411
G1 X140.173 Y157.192 E15.15512
G1 X138.517 Y169.764 E15.31613
M204 S625
M205 X6 Y6
G0 F3750 X138.809 Y169.844
M204 S500
M205 X5 Y5
G1 F1200 X133.925 Y181.633 E15.47815
G1 X126.154 Y191.762 E15.64025
G1 X116.025 Y199.533 E15.80235
G1 X104.236 Y204.417 E15.96437
G1 X91.584 Y206.083 E16.1264
G1 X78.932 Y204.417 E16.28843
G1 X67.143 Y199.533 E16.45045
G1 X57.014 Y191.762 E16.61255
G1 X49.243 Y181.633 E16.77465
G1 X44.359 Y169.844 E16.93668
G1 X42.693 Y157.192 E17.09871
G1 X44.359 Y144.54 E17.26074
G1 X49.243 Y132.751 E17.42276
G1 X57.014 Y122.622 E17.58486
G1 X67.143 Y114.851 E17.74696
G1 X78.932 Y109.967 E17.90898
G1 X91.584 Y108.301 E18.07101
G1 X104.236 Y109.967 E18.23304
G1 X116.025 Y114.851 E18.39507
G1 X126.154 Y122.622 E18.55716
G1 X133.925 Y132.751 E18.71926
G1 X138.809 Y144.54 E18.88129
G1 X140.475 Y157.192 E19.04332
G1 X138.809 Y169.844 E19.20535
M204 S625
M205 X6 Y6
G0 F3750 X139.101 Y169.924
M204 S500
M205 X5 Y5
G1 F1200 X134.187 Y181.785 E19.36836
G1 X126.368 Y191.976 E19.53146
G1 X116.177 Y199.795 E19.69455
G1 X104.316 Y204.709 E19.85756
G1 X91.584 Y206.385 E20.02062
G1 X78.852 Y204.709 E20.18367
G1 X66.991 Y199.795 E20.34669
G1 X56.8 Y191.976 E20.50978
G1 X48.981 Y181.785 E20.67288
G1 X44.067 Y169.924 E20.83589
G1 X42.391 Y157.192 E20.99894
G1 X44.067 Y144.46 E21.162
G1 X48.981 Y132.599 E21.32501
G1 X56.8 Y122.408 E21.48811
G1 X66.991 Y114.589 E21.6512
G1 X78.852 Y109.675 E21.81421
G1 X91.584 Y107.999 E21.97727
G1 X104.316 Y109.675 E22.14032
G1 X116.177 Y114.589 E22.30334
G1 X126.368 Y122.408 E22.46643
G1 X134.187 Y132.599 E22.62953
G1 X139.101 Y144.46 E22.79254
G1 X140.777 Y157.192 E22.95559
G1 X139.101 Y169.924 E23.11865
M204 S625
M205 X6 Y6
G0 F3750 X139.393 Y170.004
M204 S500
M205 X5 Y5
G1 F1200 X134.449 Y181.937 E23.28265
G1 X126.582 Y192.19 E23.44674
G1 X116.329 Y200.057 E23.61083
G1 X104.396 Y205.001 E23.77484
G1 X91.584 Y206.687 E23.93891
G1 X78.772 Y205.001 E24.10299
G1 X66.839 Y200.057 E24.267
G1 X56.586 Y192.19 E24.43109
G1 X48.719 Y181.937 E24.59518
G1 X43.775 Y170.004 E24.75918
G1 X42.089 Y157.192 E24.92326
G1 X43.775 Y144.38 E25.08734
G1 X48.719 Y132.447 E25.25134
G1 X56.586 Y122.194 E25.41543
G1 X66.839 Y114.327 E25.57952
G1 X78.772 Y109.383 E25.74352
G1 X91.584 Y107.697 E25.9076
G1 X104.396 Y109.383 E26.07168
G1 X116.329 Y114.327 E26.23568
G1 X126.582 Y122.194 E26.39977
G1 X134.449 Y132.447 E26.56386
G1 X139.393 Y144.38 E26.72787
G1 X141.079 Y157.192 E26.89195
G1 X139.393 Y170.004 E27.05602
M204 S625
M205 X6 Y6
G0 F3750 X139.709 Y170.088
M204 S500
M205 X5 Y5
;TYPE:WALL-OUTER
G1 F1200 X134.732 Y182.103 E27.24867
G1 X126.814 Y192.422 E27.44135
G1 X116.495 Y200.34 E27.63402
G1 X104.48 Y205.317 E27.82667
G1 X91.584 Y207.015 E28.01935
G1 X78.688 Y205.317 E28.21203
G1 X66.673 Y200.34 E28.40468
G1 X56.354 Y192.422 E28.59735
G1 X48.436 Y182.103 E28.79002
G1 X43.459 Y170.088 E28.98267
G1 X41.761 Y157.192 E29.17535
G1 X43.459 Y144.296 E29.36803
G1 X48.436 Y132.281 E29.56068
G1 X56.354 Y121.962 E29.75336
G1 X66.673 Y114.044 E29.94603
G1 X78.688 Y109.067 E30.13868
G1 X91.584 Y107.369 E30.33136
G1 X104.48 Y109.067 E30.52404
G1 X116.495 Y114.044 E30.71669
G1 X126.814 Y121.962 E30.90936
G1 X134.732 Y132.281 E31.10203
G1 X139.709 Y144.296 E31.29468
G1 X141.407 Y157.192 E31.48736
G1 X139.709 Y170.088 E31.68004
M204 S625
M205 X6 Y6
G0 F3750 X139.633 Y170.272
G0 X139.242 Y170.109
G0 X125.844 Y124.359
M204 S500
M205 X5 Y5
;TYPE:SKIN
G1 F1200 X124.416 Y122.931 E31.70996
M204 S625
M205 X6 Y6
G0 F3750 X122.289 Y121.299
M204 S500
M205 X5 Y5
G1 F1200 X127.476 Y126.486 E31.81862
M204 S625
M205 X6 Y6
G0 F3750 X129.108 Y128.613
M204 S500
M205 X5 Y5
G1 F1200 X120.162 Y119.667 E32.00603
M204 S625
M205 X6 Y6
G0 F3750 X118.035 Y118.035
M204 S500
M205 X5 Y5
G1 F1200 X130.74 Y130.74 E32.27219
M204 S625
M205 X6 Y6
G0 F3750 X132.372 Y132.867
M204 S500
M205 X5 Y5
G1 F1200 X115.908 Y116.403 E32.6171
M204 S625
M205 X6 Y6
G0 F3750 X114.737 Y115.727
M204 S500
M205 X5 Y5
G1 F1200 X133.048 Y134.038 E33.0007
M204 S625
M205 X6 Y6
G0 F3750 X133.398 Y134.883
M204 S500
M205 X5 Y5
G1 F1200 X113.892 Y115.377 E33.40934
M204 S625
M205 X6 Y6
G0 F3750 X113.047 Y115.027
M204 S500
M205 X5 Y5
G1 F1200 X133.748 Y135.728 E33.84301
M204 S625
M205 X6 Y6
G0 F3750 X134.098 Y136.573
M204 S500
M205 X5 Y5
G1 F1200 X112.202 Y114.677 E34.30171
M204 S625
M205 X6 Y6
G0 F3750 X111.358 Y114.327
M204 S500
M205 X5 Y5
G1 F1200 X134.448 Y137.418 E34.78544
M204 S625
M205 X6 Y6
G0 F3750 X134.798 Y138.263
M204 S500
M205 X5 Y5
G1 F1200 X110.513 Y113.977 E35.2942
M204 S625
M205 X6 Y6
G0 F3750 X109.668 Y113.627
M204 S500
M205 X5 Y5
G1 F1200 X135.148 Y139.108 E35.82799
M204 S625
M205 X6 Y6
G0 F3750 X135.498 Y139.953
M204 S500
M205 X5 Y5
G1 F1200 X108.823 Y113.277 E36.38682
M204 S625
M205 X6 Y6
G0 F3750 X107.978 Y112.927
M204 S500
M205 X5 Y5
G1 F1200 X135.848 Y140.798 E36.97069
M204 S625
M205 X6 Y6
G0 F3750 X136.198 Y141.643
M204 S500
M205 X5 Y5
G1 F1200 X107.133 Y112.577 E37.57959
M204 S625
M205 X6 Y6
G0 F3750 X106.288 Y112.227
M204 S500
M205 X5 Y5
G1 F1200 X136.548 Y142.488 E38.21352
M204 S625
M205 X6 Y6
G0 F3750 X136.898 Y143.333
M204 S500
M205 X5 Y5
G1 F1200 X105.443 Y111.877 E38.87249
M204 S625
M205 X6 Y6
G0 F3750 X104.598 Y111.527
M204 S500
M205 X5 Y5
G1 F1200 X137.248 Y144.178 E39.55649
M204 S625
M205 X6 Y6
G0 F3750 X137.554 Y144.978
M204 S500
M205 X5 Y5
G1 F1200 X103.797 Y111.222 E40.26366
M204 S625
M205 X6 Y6
G0 F3750 X103.227 Y111.147
M204 S500
M205 X5 Y5
G1 F1200 X137.629 Y145.548 E40.98434
M204 S625
M205 X6 Y6
G0 F3750 X137.704 Y146.118
M204 S500
M205 X5 Y5
G1 F1200 X102.657 Y111.072 E41.71854
M204 S625
M205 X6 Y6
G0 F3750 X102.087 Y110.996
M204 S500
M205 X5 Y5
G1 F1200 X137.779 Y146.688 E42.46626
M204 S625
M205 X6 Y6
G0 F3750 X137.854 Y147.259
M204 S500
M205 X5 Y5
G1 F1200 X101.517 Y110.921 E43.2275
M204 S625
M205 X6 Y6
G0 F3750 X100.947 Y110.846
M204 S500
M205 X5 Y5
G1 F1200 X137.929 Y147.829 E44.00225
M204 S625
M205 X6 Y6
G0 F3750 X138.004 Y148.399
M204 S500
M205 X5 Y5
G1 F1200 X100.377 Y110.771 E44.79052
M204 S625
M205 X6 Y6
G0 F3750 X99.806 Y110.696
M204 S500
M205 X5 Y5
G1 F1200 X138.079 Y148.969 E45.59231
M204 S625
M205 X6 Y6
G0 F3750 X138.155 Y149.539
M204 S500
M205 X5 Y5
G1 F1200 X99.236 Y110.621 E46.40762
M204 S625
M205 X6 Y6
G0 F3750 X98.666 Y110.546
M204 S500
M205 X5 Y5
G1 F1200 X138.23 Y150.109 E47.23644
M204 S625
M205 X6 Y6
G0 F3750 X138.305 Y150.679
M204 S500
M205 X5 Y5
G1 F1200 X98.096 Y110.47 E48.07879
M204 S625
M205 X6 Y6
G0 F3750 X97.526 Y110.395
M204 S500
M205 X5 Y5
G1 F1200 X138.38 Y151.249 E48.93464
M204 S625
M205 X6 Y6
G0 F3750 X138.455 Y151.82
M204 S500
M205 X5 Y5
G1 F1200 X96.956 Y110.32 E49.80402
M204 S625
M205 X6 Y6
G0 F3750 X96.386 Y110.245
M204 S500
M205 X5 Y5
G1 F1200 X138.53 Y152.389 E50.68691
M204 S625
M205 X6 Y6
G0 F3750 X138.605 Y152.959
M204 S500
M205 X5 Y5
G1 F1200 X95.815 Y110.17 E51.58331
M204 S625
M205 X6 Y6
G0 F3750 X95.245 Y110.095
M204 S500
M205 X5 Y5
G1 F1200 X138.68 Y153.529 E52.49323
M204 S625
M205 X6 Y6
G0 F3750 X138.755 Y154.099
M204 S500
M205 X5 Y5
G1 F1200 X94.675 Y110.02 E53.41666
M204 S625
M205 X6 Y6
G0 F3750 X94.106 Y109.945
M204 S500
M205 X5 Y5
G1 F1200 X138.831 Y154.67 E54.35361
M204 S625
M205 X6 Y6
G0 F3750 X138.906 Y155.24
M204 S500
M205 X5 Y5
G1 F1200 X93.535 Y109.869 E55.3041
M204 S625
M205 X6 Y6
G0 F3750 X92.965 Y109.794
M204 S500
M205 X5 Y5
G1 F1200 X138.981 Y155.81 E56.2681
M204 S625
M205 X6 Y6
G0 F3750 X139.056 Y156.38
M204 S500
M205 X5 Y5
G1 F1200 X92.395 Y109.719 E57.24561
M204 S625
M205 X6 Y6
G0 F3750 X91.824 Y109.643
M204 S500
M205 X5 Y5
G1 F1200 X139.131 Y156.95 E58.23665
M204 S625
M205 X6 Y6
G0 F3750 X139.129 Y157.443
M204 S500
M205 X5 Y5
G1 F1200 X91.332 Y109.646 E59.23796
M204 S625
M205 X6 Y6
G0 F3750 X90.894 Y109.703
M204 S500
M205 X5 Y5
G1 F1200 X139.072 Y157.881 E60.24725
M204 S625
M205 X6 Y6
G0 F3750 X139.014 Y158.318
M204 S500
M205 X5 Y5
G1 F1200 X90.457 Y109.761 E61.26448
M204 S625
M205 X6 Y6
G0 F3750 X90.019 Y109.818
M204 S500
M205 X5 Y5
G1 F1200 X138.957 Y158.756 E62.28969
M204 S625
M205 X6 Y6
G0 F3750 X138.899 Y159.193
M204 S500
M205 X5 Y5
G1 F1200 X89.582 Y109.876 E63.32284
M204 S625
M205 X6 Y6
G0 F3750 X89.144 Y109.933
M204 S500
M205 X5 Y5
G1 F1200 X138.841 Y159.63 E64.36395
M204 S625
M205 X6 Y6
G0 F3750 X138.783 Y160.067
M204 S500
M205 X5 Y5
G1 F1200 X88.707 Y109.991 E65.413
M204 S625
M205 X6 Y6
G0 F3750 X88.27 Y110.049
M204 S500
M205 X5 Y5
G1 F1200 X138.726 Y160.505 E66.47002
M204 S625
M205 X6 Y6
G0 F3750 X138.668 Y160.942
M204 S500
M205 X5 Y5
G1 F1200 X87.833 Y110.107 E67.53497
M204 S625
M205 X6 Y6
G0 F3750 X87.396 Y110.165
M204 S500
M205 X5 Y5
G1 F1200 X138.611 Y161.38 E68.60788
M204 S625
M205 X6 Y6
G0 F3750 X138.553 Y161.817
M204 S500
M205 X5 Y5
G1 F1200 X86.958 Y110.222 E69.68875
M204 S625
M205 X6 Y6
G0 F3750 X86.521 Y110.28
M204 S500
M205 X5 Y5
G1 F1200 X138.496 Y162.254 E70.77758
M204 S625
M205 X6 Y6
G0 F3750 X138.438 Y162.691
M204 S500
M205 X5 Y5
G1 F1200 X86.083 Y110.337 E71.87436
M204 S625
M205 X6 Y6
G0 F3750 X85.646 Y110.395
M204 S500
M205 X5 Y5
G1 F1200 X138.38 Y163.129 E72.9791
M204 S625
M205 X6 Y6
G0 F3750 X138.322 Y163.566
M204 S500
M205 X5 Y5
G1 F1200 X85.209 Y110.452 E74.09178
M204 S625
M205 X6 Y6
G0 F3750 X84.772 Y110.51
M204 S500
M205 X5 Y5
G1 F1200 X138.265 Y164.004 E75.21243
M204 S625
M205 X6 Y6
G0 F3750 X138.207 Y164.441
M204 S500
M205 X5 Y5
G1 F1200 X84.334 Y110.568 E76.34102
M204 S625
M205 X6 Y6
G0 F3750 X83.897 Y110.626
M204 S500
M205 X5 Y5
G1 F1200 X138.15 Y164.878 E77.47757
M204 S625
M205 X6 Y6
G0 F3750 X138.092 Y165.315
M204 S500
M205 X5 Y5
G1 F1200 X83.46 Y110.684 E78.62205
M204 S625
M205 X6 Y6
G0 F3750 X83.022 Y110.741
M204 S500
M205 X5 Y5
G1 F1200 X138.035 Y165.753 E79.77452
M204 S625
M205 X6 Y6
G0 F3750 X137.977 Y166.19
M204 S500
M205 X5 Y5
G1 F1200 X82.585 Y110.799 E80.93493
M204 S625
M205 X6 Y6
G0 F3750 X82.148 Y110.856
M204 S500
M205 X5 Y5
G1 F1200 X137.919 Y166.628 E82.1033
M204 S625
M205 X6 Y6
G0 F3750 X137.861 Y167.065
M204 S500
M205 X5 Y5
G1 F1200 X81.711 Y110.914 E83.2796
M204 S625
M205 X6 Y6
G0 F3750 X81.273 Y110.971
M204 S500
M205 X5 Y5
G1 F1200 X137.803 Y167.502 E84.46387
M204 S625
M205 X6 Y6
G0 F3750 X137.746 Y167.939
M204 S500
M205 X5 Y5
G1 F1200 X80.836 Y111.029 E85.65609
M204 S625
M205 X6 Y6
G0 F3750 X80.398 Y111.087
M204 S500
M205 X5 Y5
G1 F1200 X137.688 Y168.376 E86.85626
M204 S625
M205 X6 Y6
G0 F3750 X137.631 Y168.814
M204 S500
M205 X5 Y5
G1 F1200 X79.961 Y111.145 E88.06439
M204 S625
M205 X6 Y6
G0 F3750 X79.524 Y111.203
M204 S500
M205 X5 Y5
G1 F1200 X137.573 Y169.251 E89.28046
M204 S625
M205 X6 Y6
G0 F3750 X137.477 Y169.651
M204 S500
M205 X5 Y5
G1 F1200 X79.125 Y111.298 E90.50289
M204 S625
M205 X6 Y6
G0 F3750 X78.775 Y111.443
M204 S500
M205 X5 Y5
G1 F1200 X137.332 Y170.001 E91.72963
M204 S625
M205 X6 Y6
G0 F3750 X137.187 Y170.351
M204 S500
M205 X5 Y5
G1 F1200 X78.425 Y111.588 E92.96065
M204 S625
M205 X6 Y6
G0 F3750 X78.075 Y111.733
M204 S500
M205 X5 Y5
G1 F1200 X137.042 Y170.701 E94.19597
M204 S625
M205 X6 Y6
G0 F3750 X136.897 Y171.051
M204 S500
M205 X5 Y5
G1 F1200 X77.725 Y111.878 E95.43559
M204 S625
M205 X6 Y6
G0 F3750 X77.375 Y112.023
M204 S500
M205 X5 Y5
G1 F1200 X136.753 Y171.401 E96.67951
M204 S625
M205 X6 Y6
G0 F3750 X136.608 Y171.751
M204 S500
M205 X5 Y5
G1 F1200 X77.025 Y112.168 E97.92773
M204 S625
M205 X6 Y6
G0 F3750 X76.675 Y112.313
M204 S500
M205 X5 Y5
G1 F1200 X136.463 Y172.101 E99.18024
M204 S625
M205 X6 Y6
G0 F3750 X136.318 Y172.451
M204 S500
M205 X5 Y5
G1 F1200 X76.325 Y112.458 E100.43704
M204 S625
M205 X6 Y6
G0 F3750 X75.975 Y112.603
M204 S500
M205 X5 Y5
G1 F1200 X136.173 Y172.801 E101.69814
M204 S625
M205 X6 Y6
G0 F3750 X136.028 Y173.151
M204 S500
M205 X5 Y5
G1 F1200 X75.625 Y112.748 E102.96353
M204 S625
M205 X6 Y6
G0 F3750 X75.275 Y112.893
M204 S500
M205 X5 Y5
G1 F1200 X135.883 Y173.501 E104.23322
M204 S625
M205 X6 Y6
G0 F3750 X135.738 Y173.851
M204 S500
M205 X5 Y5
G1 F1200 X74.925 Y113.038 E105.5072
M204 S625
M205 X6 Y6
G0 F3750 X74.575 Y113.183
M204 S500
M205 X5 Y5
G1 F1200 X135.593 Y174.201 E106.78548
M204 S625
M205 X6 Y6
G0 F3750 X135.448 Y174.551
M204 S500
M205 X5 Y5
G1 F1200 X74.224 Y113.328 E108.06807
M204 S625
M205 X6 Y6
G0 F3750 X73.874 Y113.472
M204 S500
M205 X5 Y5
